;FLAVOR:Marlin
;TIME:5545
;Filament used: 6.2616m
;Layer height: 0.3
;MINX:-98.885
;MINY:-99.442
;MINZ:0.3
;MAXX:93.844
;MAXY:44.748
;MAXZ:15
;Generated with Cura_SteamEngine 4.5.0
M140 S60
M105
M190 S60
M104 S215
M105
M109 S215
M82 ;absolute extrusion mode
G28 ;Home
G1 Z15.0 F6000 ;Move the platform down 15mm
;Prime the extruder
G92 E0
G1 F200 E3
G92 E0
G92 E0
G92 E0
G1 F1500 E-6.5
;LAYER_COUNT:50
;LAYER:0
M107
M204 S2000
M205 X8 Y8
G0 F3600 X-.269 Y-6.035 Z0.3
M204 S800
M205 X5 Y5
;TYPE:SKIRT
G1 F1500 E0
G1 F1350 X-3.065 Y-6.059 E0.1395
G1 X-5.859 Y-6.004 E0.27892
G1 X-8.672 Y-5.869 E0.41942
G1 X-11.443 Y-5.657 E0.55807
G1 X-14.219 Y-5.366 E0.69732
G1 X-16.996 Y-4.995 E0.8371
G1 X-19.732 Y-4.551 E0.97539
G1 X-22.501 Y-4.019 E1.11606
G1 X-25.206 Y-3.42 E1.25428
G1 X-27.941 Y-2.734 E1.39496
G1 X-30.606 Y-1.984 E1.53308
G1 X-33.296 Y-1.145 E1.67366
G1 X-35.916 Y-.245 E1.81187
G1 X-38.565 Y0.749 E1.95303
G1 X-41.122 Y1.792 E2.0908
G1 X-43.686 Y2.924 E2.23063
G1 X-46.222 Y4.131 E2.37075
G1 X-48.709 Y5.401 E2.51007
G1 X-51.158 Y6.74 E2.64932
G1 X-53.572 Y8.151 E2.78882
G1 X-55.956 Y9.636 E2.92895
G1 X-58.266 Y11.168 E3.06723
G1 X-60.542 Y12.771 E3.20612
G1 X-62.797 Y14.457 E3.34659
G1 X-64.969 Y16.179 E3.48488
G1 X-67.135 Y17.998 E3.62599
G1 X-69.213 Y19.846 E3.76473
G1 X-71.233 Y21.747 E3.90312
G1 X-73.237 Y23.743 E4.04423
G1 X-75.137 Y25.745 E4.18193
G1 X-77.003 Y27.827 E4.32141
G1 X-78.831 Y29.985 E4.46251
G1 X-80.565 Y32.154 E4.60105
G1 X-82.237 Y34.372 E4.73963
G1 X-83.855 Y36.65 E4.87903
G1 X-85.427 Y39.001 E5.02012
G1 X-86.914 Y41.367 E5.15954
G1 X-87.829 Y42.904 E5.24878
G1 X-88.102 Y43.266 E5.2714
G1 X-88.324 Y43.482 E5.28686
G1 X-88.593 Y43.634 E5.30227
G1 X-88.882 Y43.71 E5.31718
G1 X-89.651 Y43.814 E5.35589
G1 X-90.954 Y43.971 E5.42137
G1 X-93.748 Y44.389 E5.56232
G1 X-95.008 Y44.616 E5.62619
G1 X-95.822 Y44.748 E5.66733
G1 X-96.2 Y44.748 E5.68619
G1 X-96.67 Y44.674 E5.70993
G1 X-97.018 Y44.563 E5.72815
G1 X-97.578 Y44.284 E5.75936
G1 X-97.93 Y44.018 E5.78138
G1 X-98.308 Y43.6 E5.80949
G1 X-98.558 Y43.199 E5.83307
G1 X-98.748 Y42.708 E5.85933
G1 X-98.828 Y42.317 E5.87924
G1 X-98.862 Y41.345 E5.92777
G1 X-98.885 Y27.595 E6.61376
G1 X-98.876 Y26.936 E6.64664
G1 X-98.8 Y26.38 E6.67464
G1 X-98.723 Y26.007 E6.69364
G1 X-98.365 Y24.855 E6.75382
G1 X-98.138 Y24.153 E6.79063
G1 X-97.353 Y21.471 E6.93005
G1 X-96.65 Y18.786 E7.06852
G1 X-96.012 Y16.045 E7.20893
G1 X-95.457 Y13.314 E7.34796
G1 X-94.981 Y10.555 E7.48764
G1 X-94.582 Y7.788 E7.62712
G1 X-94.261 Y5.012 E7.76653
G1 X-94.021 Y2.262 E7.90425
G1 X-93.856 Y-.561 E8.04533
G1 X-93.772 Y-3.321 E8.18309
G1 X-93.766 Y-6.115 E8.32249
G1 X-93.841 Y-8.943 E8.46363
G1 X-93.991 Y-11.699 E8.60133
G1 X-94.222 Y-14.485 E8.7408
G1 X-94.535 Y-17.295 E8.88186
G1 X-94.918 Y-20.03 E9.01964
G1 X-95.384 Y-22.784 E9.15899
G1 X-95.923 Y-25.502 E9.29723
G1 X-96.552 Y-28.258 E9.43826
G1 X-96.994 Y-29.923 E9.52421
G1 X-97.333 Y-31.3 E9.59496
G1 X-97.364 Y-31.683 E9.61413
G1 X-97.296 Y-32.533 E9.65667
G1 X-97.098 Y-35.323 E9.79621
G1 X-96.98 Y-38.118 E9.93578
G1 X-96.94 Y-40.929 E10.07604
G1 X-96.98 Y-43.723 E10.21544
G1 X-97.005 Y-44.395 E10.24899
G1 X-96.998 Y-44.935 E10.27594
G1 X-96.921 Y-45.426 E10.30073
G1 X-96.81 Y-45.773 E10.31891
G1 X-96.534 Y-46.33 E10.34992
G1 X-96.264 Y-46.687 E10.37225
G1 X-95.869 Y-47.044 E10.39882
G1 X-95.35 Y-47.451 E10.43172
G1 X-93.149 Y-49.193 E10.57176
G1 X-91.011 Y-50.984 E10.71091
G1 X-88.9 Y-52.857 E10.8517
G1 X-86.877 Y-54.756 E10.99013
G1 X-84.903 Y-56.719 E11.12902
G1 X-82.967 Y-58.756 E11.26922
G1 X-81.09 Y-60.845 E11.40933
G1 X-79.787 Y-62.368 E11.50933
G1 X-79.295 Y-62.954 E11.5475
G1 X-78.29 Y-64.118 E11.62423
G1 X-77.277 Y-65.255 E11.7002
G1 X-76.151 Y-66.478 E11.78314
G1 X-75.177 Y-67.503 E11.85368
G1 X-74.037 Y-68.669 E11.93504
G1 X-72.933 Y-69.762 E12.01254
G1 X-71.817 Y-70.835 E12.08978
G1 X-70.681 Y-71.893 E12.16723
G1 X-69.502 Y-72.959 E12.24653
G1 X-68.384 Y-73.937 E12.32063
G1 X-67.185 Y-74.955 E12.39911
G1 X-65.935 Y-75.982 E12.47982
G1 X-64.753 Y-76.923 E12.55519
G1 X-63.52 Y-77.875 E12.63291
G1 X-62.288 Y-78.797 E12.70968
G1 X-60.988 Y-79.737 E12.78972
G1 X-59.756 Y-80.6 E12.86476
G1 X-58.45 Y-81.487 E12.94352
G1 X-57.163 Y-82.331 E13.02031
G1 X-55.835 Y-83.172 E13.09873
G1 X-54.484 Y-83.999 E13.17776
G1 X-53.19 Y-84.763 E13.25273
G1 X-52.139 Y-85.363 E13.31311
G1 X-49.717 Y-86.789 E13.45333
G1 X-47.379 Y-88.257 E13.59106
G1 X-45.027 Y-89.828 E13.73217
G1 X-42.772 Y-91.428 E13.87011
G1 X-40.528 Y-93.118 E14.01026
G1 X-38.333 Y-94.87 E14.15038
G1 X-36.199 Y-96.675 E14.28982
G1 X-34.941 Y-97.809 E14.37432
G1 X-33.7 Y-98.893 E14.45653
G1 X-33.38 Y-99.093 E14.47535
G1 X-32.841 Y-99.322 E14.50457
G1 X-32.425 Y-99.417 E14.52586
G1 X-31.885 Y-99.441 E14.55283
G1 X-30.312 Y-99.232 E14.63199
G1 X-27.516 Y-98.833 E14.7729
G1 X-24.769 Y-98.52 E14.91084
G1 X-21.954 Y-98.279 E15.05179
G1 X-19.195 Y-98.122 E15.18966
G1 X-16.369 Y-98.041 E15.33071
G1 X-13.608 Y-98.039 E15.46845
G1 X-10.78 Y-98.118 E15.6096
G1 X-8.916 Y-98.214 E15.70272
G1 X-8.026 Y-98.269 E15.7472
G1 X-7.174 Y-98.314 E15.78977
G1 X-6.192 Y-98.352 E15.8388
G1 X-4.931 Y-98.391 E15.90174
G1 X-3.915 Y-98.412 E15.95244
G1 X-3.267 Y-98.417 E15.98477
G1 X-1.898 Y-98.418 E16.05307
G1 X-1.046 Y-98.411 E16.09558
G1 X-.136 Y-98.392 E16.14099
G1 X1.18 Y-98.352 E16.20667
G1 X2.239 Y-98.309 E16.25955
G1 X2.796 Y-98.279 E16.28738
G1 X4.046 Y-98.205 E16.34985
G1 X6.857 Y-98.078 E16.49024
G1 X9.653 Y-98.029 E16.62975
G1 X12.447 Y-98.061 E16.76915
G1 X15.244 Y-98.172 E16.90881
G1 X18.03 Y-98.36 E17.04812
G1 X20.788 Y-98.626 E17.18635
G1 X23.594 Y-98.977 E17.32743
G1 X26.462 Y-99.418 E17.4722
G1 X27.145 Y-99.442 E17.5063
G1 X27.517 Y-99.39 E17.52504
G1 X28.099 Y-99.213 E17.55539
G1 X28.49 Y-99.009 E17.57739
G1 X28.939 Y-98.657 E17.60585
G1 X31.387 Y-96.476 E17.76942
G1 X33.544 Y-94.664 E17.90997
G1 X35.723 Y-92.934 E18.04878
G1 X37.973 Y-91.251 E18.18896
G1 X40.252 Y-89.644 E18.32808
G1 X42.577 Y-88.101 E18.4673
G1 X44.936 Y-86.631 E18.60597
G1 X47.09 Y-85.366 E18.73059
G1 X48.149 Y-84.761 E18.79144
G1 X49.426 Y-84.007 E18.86543
G1 X50.777 Y-83.181 E18.94443
G1 X52.105 Y-82.34 E19.02285
G1 X53.41 Y-81.483 E19.10074
G1 X54.669 Y-80.632 E19.17656
G1 X55.949 Y-79.735 E19.25454
G1 X57.226 Y-78.811 E19.33317
G1 X58.443 Y-77.901 E19.40899
G1 X59.703 Y-76.929 E19.48838
G1 X60.942 Y-75.943 E19.56738
G1 X62.076 Y-75.011 E19.64061
G1 X63.293 Y-73.978 E19.72025
G1 X64.488 Y-72.933 E19.79945
G1 X65.56 Y-71.966 E19.87148
G1 X66.823 Y-70.789 E19.95761
G1 X67.846 Y-69.806 E20.02839
G1 X69.013 Y-68.653 E20.11023
G1 X70.085 Y-67.559 E20.18665
G1 X71.146 Y-66.441 E20.26355
G1 X72.22 Y-65.272 E20.34274
G1 X73.224 Y-64.15 E20.41786
G1 X74.227 Y-62.988 E20.49444
G1 X74.744 Y-62.372 E20.53456
G1 X76.591 Y-60.23 E20.67567
G1 X78.451 Y-58.192 E20.81333
G1 X80.408 Y-56.165 E20.95389
G1 X82.424 Y-54.193 E21.09459
G1 X84.441 Y-52.329 E21.23161
G1 X86.548 Y-50.49 E21.37114
G1 X88.729 Y-48.691 E21.51219
G1 X90.678 Y-47.167 E21.63562
G1 X91.151 Y-46.773 E21.66633
G1 X91.393 Y-46.487 E21.68502
G1 X91.638 Y-46.083 E21.7086
G1 X91.778 Y-45.743 E21.72694
G1 X91.931 Y-45.11 E21.75943
G1 X91.965 Y-44.801 E21.77494
G1 X91.901 Y-41.935 E21.91796
G1 X91.912 Y-39.139 E22.05745
G1 X92 Y-36.38 E22.19517
G1 X92.169 Y-33.585 E22.33487
G1 X92.327 Y-31.708 E22.42884
G1 X92.296 Y-31.318 E22.44836
G1 X91.696 Y-29.043 E22.56574
G1 X91.045 Y-26.291 E22.70683
G1 X90.479 Y-23.565 E22.84573
G1 X89.991 Y-20.803 E22.98566
G1 X89.586 Y-18.071 E23.12345
G1 X89.25 Y-15.263 E23.26454
G1 X88.999 Y-12.514 E23.40226
G1 X88.822 Y-9.692 E23.54333
G1 X88.727 Y-6.933 E23.68106
G1 X88.71 Y-4.139 E23.82045
G1 X88.773 Y-1.311 E23.96158
G1 X88.912 Y1.446 E24.0993
G1 X89.132 Y4.232 E24.23873
G1 X89.43 Y7.01 E24.37812
G1 X89.807 Y9.779 E24.51754
G1 X90.266 Y12.555 E24.65791
G1 X90.799 Y15.3 E24.79742
G1 X91.41 Y18.027 E24.93684
G1 X92.092 Y20.712 E25.07505
G1 X92.856 Y23.406 E25.21476
G1 X93.749 Y26.263 E25.36409
G1 X93.804 Y26.597 E25.38098
G1 X93.822 Y27.488 E25.42544
G1 X93.844 Y41.248 E26.11193
G1 X93.836 Y41.871 E26.14302
G1 X93.733 Y42.606 E26.18004
G1 X93.548 Y43.138 E26.20815
G1 X93.347 Y43.5 E26.2288
G1 X92.981 Y43.941 E26.25739
G1 X92.697 Y44.181 E26.27595
G1 X92.267 Y44.444 E26.30109
G1 X91.817 Y44.628 E26.32535
G1 X91.257 Y44.738 E26.35382
G1 X90.843 Y44.747 E26.37448
G1 X89.74 Y44.577 E26.43016
G1 X88.284 Y44.323 E26.50389
G1 X85.101 Y43.865 E26.66433
G1 X83.926 Y43.714 E26.72343
G1 X83.566 Y43.615 E26.74206
G1 X83.29 Y43.474 E26.75752
G1 X82.907 Y43.078 E26.78501
G1 X81.295 Y40.429 E26.93971
G1 X79.764 Y38.051 E27.08082
G1 X78.185 Y35.745 E27.22025
G1 X76.561 Y33.513 E27.35796
G1 X74.833 Y31.274 E27.49906
G1 X73.086 Y29.137 E27.63677
G1 X71.256 Y27.025 E27.77619
G1 X69.345 Y24.939 E27.91733
G1 X67.409 Y22.945 E28.05599
G1 X65.421 Y21.008 E28.19446
G1 X63.34 Y19.091 E28.33562
G1 X61.242 Y17.269 E28.47425
G1 X59.098 Y15.508 E28.61267
G1 X56.862 Y13.776 E28.75378
G1 X54.622 Y12.141 E28.89214
G1 X52.303 Y10.545 E29.03258
G1 X49.986 Y9.045 E29.17029
G1 X47.581 Y7.585 E29.31065
G1 X45.14 Y6.195 E29.4508
G1 X42.703 Y4.896 E29.58857
G1 X40.17 Y3.638 E29.72967
G1 X37.655 Y2.476 E29.86789
G1 X35.088 Y1.377 E30.0072
G1 X32.477 Y0.345 E30.14727
G1 X29.851 Y-.607 E30.28663
G1 X27.198 Y-1.486 E30.42606
G1 X24.541 Y-2.283 E30.56446
G1 X21.821 Y-3.015 E30.70498
G1 X19.089 Y-3.671 E30.84516
G1 X16.366 Y-4.239 E30.98393
G1 X13.606 Y-4.736 E31.12385
G1 X10.868 Y-5.15 E31.262
G1 X8.102 Y-5.488 E31.40102
G1 X5.287 Y-5.752 E31.54208
G1 X2.524 Y-5.932 E31.68022
G1 X-.269 Y-6.035 E31.81965
M204 S2000
M205 X8 Y8
G1 F1500 E25.31965
;MESH:FaceShield_headband_V6.stl
G0 F3600 X-83.253 Y1.715
G0 X-84.724 Y1.184
G0 X-85.332 Y2.983
G0 X-85.773 Y4.065
M204 S800
M205 X5 Y5
;TYPE:WALL-INNER
G1 F1500 E31.81965
G1 F1350 X-85.336 Y3.491 E31.85565
G1 X-85.127 Y2.904 E31.88673
G1 X-84.833 Y2.082 E31.93029
G1 X-84.536 Y1.252 E31.97427
G1 X-84.25 Y0.433 E32.01755
G1 X-84.155 Y0.187 E32.0307
G1 X-83.841 Y-.629 E32.07432
G1 X-83.22 Y-2.237 E32.16032
G1 X-83.106 Y-2.505 E32.17485
G1 X-82.765 Y-3.31 E32.21847
G1 X-82.103 Y-4.872 E32.30311
G1 X-81.97 Y-5.16 E32.31893
G1 X-81.602 Y-5.953 E32.36255
G1 X-80.897 Y-7.473 E32.44614
G1 X-80.745 Y-7.776 E32.46305
G1 X-80.352 Y-8.554 E32.50654
G1 X-79.602 Y-10.04 E32.58958
G1 X-79.434 Y-10.348 E32.60709
G1 X-79.015 Y-11.115 E32.65069
G1 X-78.23 Y-12.551 E32.73234
G1 X-78.038 Y-12.877 E32.75121
G1 X-77.595 Y-13.629 E32.79476
G1 X-76.766 Y-15.034 E32.87614
G1 X-76.56 Y-15.359 E32.89534
G1 X-76.092 Y-16.095 E32.93886
G1 X-75.236 Y-17.443 E33.01852
G1 X-75 Y-17.789 E33.03942
G1 X-74.507 Y-18.511 E33.08303
G1 X-73.615 Y-19.818 E33.16198
G1 X-73.361 Y-20.166 E33.18347
G1 X-72.845 Y-20.871 E33.22706
G1 X-71.925 Y-22.128 E33.30477
G1 X-71.642 Y-22.488 E33.32762
G1 X-71.104 Y-23.175 E33.37115
G1 X-70.147 Y-24.395 E33.44851
G1 X-69.849 Y-24.751 E33.47167
G1 X-69.287 Y-25.42 E33.51526
G1 X-68.309 Y-26.587 E33.59123
G1 X-67.981 Y-26.953 E33.61575
G1 X-67.398 Y-27.604 E33.65935
G1 X-66.395 Y-28.724 E33.73435
G1 X-66.042 Y-29.093 E33.75983
G1 X-65.438 Y-29.724 E33.80341
G1 X-64.416 Y-30.791 E33.87712
G1 X-64.032 Y-31.166 E33.9039
G1 X-63.407 Y-31.777 E33.94751
G1 X-62.355 Y-32.805 E34.02089
G1 X-61.954 Y-33.172 E34.04801
G1 X-61.31 Y-33.762 E34.09158
G1 X-60.245 Y-34.737 E34.16362
G1 X-59.811 Y-35.109 E34.19214
G1 X-59.149 Y-35.677 E34.23565
G1 X-58.062 Y-36.609 E34.30709
G1 X-57.606 Y-36.974 E34.33623
G1 X-56.924 Y-37.52 E34.37982
G1 X-55.833 Y-38.394 E34.44956
G1 X-55.34 Y-38.763 E34.48028
G1 X-54.64 Y-39.287 E34.5239
G1 X-53.532 Y-40.116 E34.59294
G1 X-53.015 Y-40.477 E34.6244
G1 X-52.299 Y-40.977 E34.66797
G1 X-51.175 Y-41.761 E34.73634
G1 X-50.634 Y-42.113 E34.76854
G1 X-49.902 Y-42.589 E34.8121
G1 X-48.776 Y-43.321 E34.87911
G1 X-48.201 Y-43.669 E34.91264
G1 X-47.455 Y-44.12 E34.95613
G1 X-46.327 Y-44.803 E35.02192
G1 X-45.719 Y-45.143 E35.05667
G1 X-44.956 Y-45.57 E35.10029
G1 X-43.818 Y-46.207 E35.16536
G1 X-43.187 Y-46.533 E35.20079
G1 X-42.411 Y-46.935 E35.24439
G1 X-41.278 Y-47.522 E35.30805
G1 X-40.61 Y-47.84 E35.34497
G1 X-39.822 Y-48.215 E35.3885
G1 X-38.682 Y-48.759 E35.45152
G1 X-37.994 Y-49.059 E35.48897
G1 X-37.194 Y-49.409 E35.53253
G1 X-36.054 Y-49.907 E35.5946
G1 X-35.337 Y-50.192 E35.63309
G1 X-34.526 Y-50.515 E35.67664
G1 X-33.377 Y-50.973 E35.73835
G1 X-32.645 Y-51.236 E35.77716
G1 X-31.824 Y-51.532 E35.8207
G1 X-30.697 Y-51.939 E35.88048
G1 X-29.919 Y-52.19 E35.92126
G1 X-29.089 Y-52.459 E35.96479
G1 X-27.95 Y-52.828 E36.02453
G1 X-27.163 Y-53.054 E36.06538
G1 X-26.325 Y-53.295 E36.10888
G1 X-25.212 Y-53.616 E36.16667
G1 X-24.381 Y-53.825 E36.20942
G1 X-23.534 Y-54.039 E36.253
G1 X-22.417 Y-54.321 E36.31048
G1 X-21.573 Y-54.504 E36.35357
G1 X-20.72 Y-54.689 E36.39711
G1 X-19.615 Y-54.93 E36.45354
G1 X-18.745 Y-55.089 E36.49766
G1 X-17.886 Y-55.246 E36.54123
G1 X-16.804 Y-55.445 E36.59611
G1 X-15.9 Y-55.58 E36.64171
G1 X-15.036 Y-55.709 E36.6853
G1 X-13.958 Y-55.87 E36.73967
G1 X-13.04 Y-55.975 E36.78577
G1 X-12.172 Y-56.076 E36.82937
G1 X-11.115 Y-56.199 E36.88246
G1 X-10.167 Y-56.277 E36.92991
G1 X-9.297 Y-56.349 E36.97347
G1 X-8.261 Y-56.436 E37.02534
G1 X-7.287 Y-56.483 E37.07398
G1 X-6.414 Y-56.526 E37.11759
G1 X-5.378 Y-56.577 E37.16934
G1 X-4.401 Y-56.593 E37.21809
G1 X-3.528 Y-56.608 E37.26165
G1 X-2.521 Y-56.625 E37.3119
G1 X-1.512 Y-56.609 E37.36224
G1 X-.64 Y-56.594 E37.40575
G1 X0.337 Y-56.577 E37.4545
G1 X1.373 Y-56.526 E37.50625
G1 X2.246 Y-56.483 E37.54986
G1 X3.22 Y-56.435 E37.59851
G1 X4.256 Y-56.35 E37.65037
G1 X5.126 Y-56.278 E37.69392
G1 X6.074 Y-56.2 E37.74138
G1 X7.131 Y-56.078 E37.79446
G1 X7.998 Y-55.978 E37.83801
G1 X8.917 Y-55.871 E37.88416
G1 X9.994 Y-55.71 E37.93849
G1 X10.858 Y-55.58 E37.98208
G1 X11.763 Y-55.444 E38.02774
G1 X12.846 Y-55.246 E38.08267
G1 X13.704 Y-55.089 E38.12618
G1 X14.574 Y-54.93 E38.17031
G1 X15.68 Y-54.69 E38.22677
G1 X16.533 Y-54.504 E38.27033
G1 X17.375 Y-54.321 E38.31331
G1 X18.494 Y-54.04 E38.37088
G1 X19.34 Y-53.826 E38.41441
G1 X20.171 Y-53.616 E38.45717
G1 X21.282 Y-53.297 E38.51484
G1 X22.123 Y-53.056 E38.55849
G1 X22.909 Y-52.83 E38.59929
G1 X24.048 Y-52.462 E38.65901
G1 X24.88 Y-52.192 E38.70265
G1 X25.651 Y-51.942 E38.74308
G1 X26.783 Y-51.534 E38.80312
G1 X27.605 Y-51.238 E38.8467
G1 X28.341 Y-50.973 E38.88573
G1 X29.144 Y-50.651 E38.92889
G1 X29.485 Y-50.516 E38.94719
G1 X30.296 Y-50.194 E38.99072
G1 X31.02 Y-49.906 E39.0296
G1 X32.153 Y-49.411 E39.09128
G1 X32.954 Y-49.06 E39.13491
G1 X33.642 Y-48.759 E39.17238
G1 X34.782 Y-48.217 E39.23535
G1 X35.571 Y-47.841 E39.27896
G1 X36.232 Y-47.526 E39.31549
G1 X37.371 Y-46.936 E39.37949
G1 X38.146 Y-46.534 E39.42304
G1 X38.777 Y-46.207 E39.4585
G1 X39.914 Y-45.571 E39.5235
G1 X40.678 Y-45.143 E39.56719
G1 X41.286 Y-44.802 E39.60196
G1 X42.413 Y-44.12 E39.66768
G1 X43.161 Y-43.668 E39.71129
G1 X43.735 Y-43.321 E39.74475
G1 X44.861 Y-42.589 E39.81175
G1 X45.593 Y-42.113 E39.85531
G1 X46.134 Y-41.761 E39.88751
G1 X47.258 Y-40.977 E39.95589
G1 X47.973 Y-40.478 E39.99938
G1 X48.48 Y-40.124 E40.03023
G1 X49.598 Y-39.288 E40.09988
G1 X50.298 Y-38.764 E40.14351
G1 X50.787 Y-38.398 E40.17398
G1 X51.883 Y-37.52 E40.24404
G1 X52.565 Y-36.974 E40.28763
G1 X53.016 Y-36.613 E40.31645
G1 X54.107 Y-35.678 E40.38813
G1 X54.77 Y-35.11 E40.43169
G1 X55.194 Y-34.746 E40.45957
G1 X56.269 Y-33.762 E40.53227
G1 X56.913 Y-33.172 E40.57585
G1 X57.309 Y-32.81 E40.60262
G1 X58.366 Y-31.777 E40.67635
G1 X58.99 Y-31.167 E40.71989
G1 X59.361 Y-30.805 E40.74575
G1 X60.396 Y-29.724 E40.82041
G1 X61 Y-29.093 E40.86399
G1 X61.357 Y-28.719 E40.88979
G1 X62.356 Y-27.603 E40.96451
G1 X62.939 Y-26.953 E41.00807
G1 X63.267 Y-26.587 E41.03259
G1 X64.245 Y-25.421 E41.10852
G1 X64.808 Y-24.75 E41.15222
G1 X65.106 Y-24.395 E41.17534
G1 X66.062 Y-23.175 E41.25267
G1 X66.601 Y-22.488 E41.29623
G1 X66.88 Y-22.133 E41.31876
G1 X67.804 Y-20.871 E41.39679
G1 X68.32 Y-20.166 E41.44038
G1 X68.567 Y-19.828 E41.46127
G1 X69.466 Y-18.51 E41.54086
G1 X69.958 Y-17.789 E41.58441
G1 X70.183 Y-17.46 E41.60429
G1 X71.05 Y-16.095 E41.68497
G1 X71.518 Y-15.358 E41.72853
