; generated by PrusaSlicer 2.1.1+win64 on 2020-04-05 at 10:55:09 UTC

; 

; external perimeters extrusion width = 0.60mm
; perimeters extrusion width = 0.50mm
; infill extrusion width = 0.50mm
; solid infill extrusion width = 0.50mm
; top infill extrusion width = 0.45mm
; first layer extrusion width = 0.42mm

M73 P0 R81
M73 Q0 S81
M201 X1000 Y1000 Z1000 E5000 ; sets maximum accelerations, mm/sec^2
M203 X200 Y200 Z12 E120 ; sets maximum feedrates, mm/sec
M204 P1250 R1250 T1250 ; sets acceleration (P, T) and retract acceleration (R), mm/sec^2
M205 X8.00 Y8.00 Z0.40 E4.50 ; sets the jerk limits, mm/sec
M205 S0 T0 ; sets the minimum extruding and travel feed rate, mm/sec
M107
M862.3 P "MK3S" ; printer model check
M862.1 P0.4 ; nozzle diameter check
M115 U3.8.1 ; tell printer latest fw version
G90 ; use absolute coordinates
M83 ; extruder relative mode
M104 S215 ; set extruder temp
M140 S60 ; set bed temp
M190 S60 ; wait for bed temp
M109 S215 ; wait for extruder temp
G28 W ; home all without mesh bed level
G80 ; mesh bed leveling
G1 Y-3.0 F1000.0 ; go outside print area
G92 E0.0
G1 X60.0 E9.0 F1000.0 ; intro line
M73 Q0 S81
M73 P0 R80
G1 X100.0 E12.5 F1000.0 ; intro line
G92 E0.0
M221 S95
G21 ; set units to millimeters
G90 ; use absolute coordinates
M83 ; use relative distances for extrusion
M900 K30 ; Filament gcode
;BEFORE_LAYER_CHANGE
G92 E0.0
;0.2


G1 E-0.80000 F2100.00000
G1 Z0.600 F10800.000
;AFTER_LAYER_CHANGE
;0.2
G1 X93.903 Y31.693
G1 Z0.200
G1 E0.80000 F2100.00000
M204 S1000
G1 F1200
G1 X94.713 Y31.459 E0.02644
G1 X95.488 Y31.387 E0.02440
G1 X154.504 Y31.387 E1.85039
G1 X155.224 Y31.447 E0.02266
G1 X155.848 Y31.604 E0.02016
G1 X156.820 Y32.063 E0.03372
G1 X184.962 Y52.028 E1.08188
G1 X189.927 Y55.864 E0.19672
G1 X194.577 Y59.932 E0.19373
G1 X196.889 Y62.150 E0.10045
G1 X219.580 Y84.364 E0.99563
G1 X220.306 Y85.228 E0.03537
G1 X220.658 Y85.904 E0.02392
G1 X220.911 Y86.739 E0.02735
G1 X220.988 Y87.491 E0.02370
G1 X222.853 Y159.247 E2.25062
G1 X222.849 Y174.403 E0.47519
G1 X222.780 Y175.067 E0.02094
G1 X222.577 Y175.795 E0.02371
G1 X222.263 Y176.459 E0.02303
G1 X221.819 Y177.085 E0.02405
G1 X221.180 Y177.694 E0.02770
G1 X220.168 Y178.282 E0.03669
G1 X219.319 Y178.538 E0.02781
G1 X218.519 Y178.613 E0.02519
G1 X31.475 Y178.613 E5.86463
G1 X30.726 Y178.546 E0.02357
G1 X29.993 Y178.348 E0.02382
G1 X29.308 Y178.027 E0.02372
G1 X28.675 Y177.580 E0.02428
G1 X28.130 Y177.025 E0.02440
G1 X27.655 Y176.306 E0.02701
G1 X27.353 Y175.582 E0.02461
G1 X27.155 Y174.455 E0.03589
G1 X27.148 Y159.242 E0.47698
G1 X29.012 Y87.472 E2.25106
G1 X29.082 Y86.777 E0.02190
G1 X29.282 Y86.048 E0.02371
G1 X29.599 Y85.377 E0.02325
G1 X30.044 Y84.748 E0.02417
G1 X53.158 Y62.104 E1.01455
G1 X57.660 Y57.913 E0.19287
G1 X60.065 Y55.870 E0.09892
G1 X65.044 Y52.024 E0.19725
G1 X92.858 Y32.289 E1.06931
G1 X93.851 Y31.723 E0.03586
G1 F8640
G1 X94.713 Y31.459 E-0.20823
G1 X95.488 Y31.387 E-0.17966
G1 X97.100 Y31.387 E-0.37211
G1 E-0.04000 F2100.00000
G1 Z0.800 F10800.000
G1 X212.001 Y162.888
G1 Z0.200
G1 E0.80000 F2100.00000
G1 F1200
G1 X212.309 Y163.291 E0.01587
G1 X212.663 Y163.622 E0.01522
G1 X213.092 Y163.904 E0.01610
G1 X213.566 Y164.110 E0.01620
G1 X214.093 Y164.232 E0.01694
G1 X214.577 Y164.263 E0.01522
G1 X215.088 Y164.208 E0.01611
G1 X215.582 Y164.067 E0.01612
G1 X216.047 Y163.841 E0.01621
G1 X216.483 Y163.522 E0.01694
G1 X216.822 Y163.175 E0.01521
G1 X217.113 Y162.751 E0.01611
G1 X217.328 Y162.284 E0.01612
G1 X217.459 Y161.787 E0.01612
G1 X217.501 Y161.300 E0.01532
G1 X217.501 Y159.300 E0.06270
G1 X217.519 Y159.099 E0.00633
G1 X217.564 Y158.929 E0.00552
G1 X217.639 Y158.770 E0.00552
G1 X217.736 Y158.631 E0.00531
G1 X217.895 Y158.480 E0.00687
G1 X218.009 Y158.400 E0.00438
G1 X218.169 Y158.325 E0.00552
G1 X218.339 Y158.280 E0.00552
G1 X218.514 Y158.264 E0.00552
G1 X218.690 Y158.280 E0.00552
G1 X218.860 Y158.325 E0.00552
G1 X219.020 Y158.400 E0.00552
G1 X219.164 Y158.501 E0.00552
G1 X219.288 Y158.625 E0.00552
G1 X219.389 Y158.770 E0.00552
G1 X219.464 Y158.929 E0.00552
G1 X219.510 Y159.099 E0.00552
G1 X219.527 Y159.301 E0.00633
G1 X219.527 Y174.249 E0.46871
G1 X219.510 Y174.450 E0.00633
G1 X219.464 Y174.621 E0.00552
G1 X219.389 Y174.780 E0.00552
G1 X219.288 Y174.925 E0.00552
G1 X219.169 Y175.044 E0.00531
G1 X218.986 Y175.166 E0.00687
G1 X218.860 Y175.225 E0.00438
G1 X218.690 Y175.270 E0.00552
G1 X218.514 Y175.286 E0.00552
G1 X218.339 Y175.270 E0.00552
G1 X218.169 Y175.225 E0.00552
G1 X218.009 Y175.150 E0.00552
G1 X217.865 Y175.049 E0.00552
G1 X217.740 Y174.925 E0.00552
G1 X217.639 Y174.780 E0.00552
G1 X217.564 Y174.621 E0.00552
G1 X217.519 Y174.450 E0.00552
G1 X217.501 Y174.249 E0.00633
G1 X217.501 Y172.250 E0.06270
G1 X217.459 Y171.763 E0.01532
G1 X217.328 Y171.266 E0.01612
G1 X217.113 Y170.798 E0.01612
G1 X216.822 Y170.375 E0.01611
G1 X216.483 Y170.028 E0.01521
G1 X216.047 Y169.708 E0.01694
G1 X215.583 Y169.483 E0.01620
G1 X215.116 Y169.349 E0.01521
G1 X214.580 Y169.286 E0.01694
G1 X214.064 Y169.320 E0.01619
G1 X213.592 Y169.433 E0.01522
G1 X213.095 Y169.644 E0.01695
G1 X212.663 Y169.928 E0.01618
G1 X212.309 Y170.259 E0.01522
G1 X212.001 Y170.661 E0.01587
G1 X212.001 Y162.948 E0.24183
G1 F8640
G1 X212.309 Y163.291 E-0.10622
G1 X212.663 Y163.622 E-0.11210
G1 X213.092 Y163.904 E-0.11857
G1 X213.566 Y164.110 E-0.11932
G1 X214.093 Y164.232 E-0.12479
G1 X214.577 Y164.263 E-0.11207
G1 X214.865 Y164.232 E-0.06693
G1 E-0.04000 F2100.00000
G1 Z0.800 F10800.000
G1 X212.001 Y173.871
G1 Z0.200
G1 E0.80000 F2100.00000
G1 F1200
G1 X212.027 Y173.911 E0.00150
G1 X212.027 Y174.258 E0.01087
G1 X212.001 Y174.258 E0.00081
G1 X212.001 Y173.931 E0.01026
G1 F8640
G1 X212.027 Y173.911 E-0.00749
G1 X212.027 Y174.258 E-0.08006
G1 X212.001 Y174.258 E-0.00597
G1 X212.001 Y173.931 E-0.07554
G1 E-0.63095 F2100.00000
G1 Z0.800 F10800.000
G1 X209.935 Y137.037
G1 Z0.200
G1 E0.80000 F2100.00000
G1 F1200
G1 X209.564 Y137.035 E0.01164
G1 X209.198 Y136.971 E0.01164
G1 X208.848 Y136.848 E0.01164
G1 X208.523 Y136.668 E0.01164
G1 X208.232 Y136.437 E0.01164
G1 X207.983 Y136.161 E0.01164
G1 X207.783 Y135.848 E0.01164
G1 X207.649 Y135.534 E0.01072
G1 X206.696 Y132.799 E0.09081
G1 X205.664 Y130.124 E0.08989
G1 X204.544 Y127.485 E0.08989
G1 X203.338 Y124.884 E0.08989
G1 X202.047 Y122.324 E0.08989
G1 X200.672 Y119.808 E0.08989
G1 X199.216 Y117.339 E0.08989
G1 X197.678 Y114.919 E0.08989
G1 X196.062 Y112.551 E0.08989
G1 X194.369 Y110.237 E0.08989
G1 X192.600 Y107.981 E0.08989
G1 X190.758 Y105.784 E0.08989
G1 X188.845 Y103.649 E0.08989
G1 X186.862 Y101.578 E0.08989
G1 X184.812 Y99.573 E0.08989
G1 X182.697 Y97.638 E0.08989
G1 X180.520 Y95.772 E0.08989
G1 X178.282 Y93.980 E0.08989
G1 X175.987 Y92.262 E0.08989
G1 X173.636 Y90.621 E0.08989
G1 X171.233 Y89.058 E0.08989
G1 X168.779 Y87.575 E0.08989
G1 X166.278 Y86.174 E0.08989
G1 X163.732 Y84.856 E0.08989
G1 X161.144 Y83.622 E0.08989
G1 X158.516 Y82.475 E0.08989
G1 X155.853 Y81.414 E0.08989
G1 X153.155 Y80.442 E0.08989
G1 X150.428 Y79.560 E0.08989
G1 X147.672 Y78.767 E0.08989
G1 X144.892 Y78.066 E0.08989
G1 X142.091 Y77.457 E0.08989
G1 X139.271 Y76.940 E0.08989
G1 X136.435 Y76.517 E0.08989
G1 X133.587 Y76.187 E0.08989
G1 X130.730 Y75.951 E0.08989
G1 X127.867 Y75.809 E0.08989
G1 X125.000 Y75.762 E0.08989
G1 X122.133 Y75.809 E0.08989
G1 X119.270 Y75.951 E0.08989
G1 X116.413 Y76.187 E0.08989
G1 X113.565 Y76.517 E0.08989
G1 X110.729 Y76.940 E0.08989
G1 X107.909 Y77.457 E0.08989
G1 X105.108 Y78.066 E0.08989
G1 X102.328 Y78.767 E0.08989
G1 X99.572 Y79.560 E0.08989
G1 X96.845 Y80.442 E0.08989
G1 X94.147 Y81.414 E0.08989
G1 X91.484 Y82.475 E0.08989
G1 X88.856 Y83.622 E0.08989
G1 X86.268 Y84.856 E0.08989
G1 X83.722 Y86.174 E0.08989
G1 X81.221 Y87.575 E0.08989
G1 X78.767 Y89.058 E0.08989
G1 X76.364 Y90.621 E0.08989
G1 X74.013 Y92.262 E0.08989
G1 X71.718 Y93.980 E0.08989
G1 X69.480 Y95.772 E0.08989
G1 X67.303 Y97.638 E0.08989
G1 X65.188 Y99.573 E0.08989
G1 X63.138 Y101.578 E0.08989
G1 X61.155 Y103.649 E0.08989
G1 X59.242 Y105.784 E0.08989
G1 X57.400 Y107.981 E0.08989
G1 X55.631 Y110.237 E0.08989
G1 X53.938 Y112.551 E0.08989
G1 X52.322 Y114.919 E0.08989
G1 X50.784 Y117.339 E0.08989
G1 X49.327 Y119.808 E0.08989
G1 X47.953 Y122.324 E0.08989
G1 X46.662 Y124.884 E0.08989
G1 X45.456 Y127.485 E0.08989
G1 X44.336 Y130.124 E0.08989
G1 X43.304 Y132.799 E0.08989
G1 X42.351 Y135.534 E0.09081
G1 X42.217 Y135.848 E0.01072
G1 X42.017 Y136.161 E0.01164
G1 X41.768 Y136.437 E0.01164
G1 X41.477 Y136.668 E0.01164
G1 X41.152 Y136.848 E0.01164
G1 X40.796 Y136.973 E0.01185
G1 X40.388 Y137.035 E0.01293
G1 X40.065 Y137.037 E0.01014
G1 X39.698 Y136.978 E0.01164
G1 X39.346 Y136.859 E0.01164
G1 X39.019 Y136.684 E0.01164
G1 X38.725 Y136.457 E0.01164
G1 X38.473 Y136.185 E0.01164
G1 X38.269 Y135.874 E0.01164
G1 X38.119 Y135.535 E0.01164
G1 X38.027 Y135.175 E0.01164
G1 X37.999 Y134.829 E0.01088
G1 X37.999 Y122.784 E0.37766
G1 X38.046 Y119.906 E0.09024
G1 X38.190 Y117.027 E0.09040
G1 X38.428 Y114.154 E0.09039
G1 X38.762 Y111.290 E0.09041
G1 X39.190 Y108.439 E0.09039
G1 X39.713 Y105.604 E0.09039
G1 X40.203 Y103.358 E0.07208
G1 X40.329 Y102.787 E0.01834
G1 X41.038 Y99.993 E0.09038
G1 X41.840 Y97.224 E0.09039
G1 X42.550 Y95.037 E0.07209
G1 X42.733 Y94.481 E0.01834
G1 X43.716 Y91.772 E0.09037
G1 X44.788 Y89.096 E0.09040
G1 X45.948 Y86.457 E0.09040
G1 X47.195 Y83.858 E0.09039
G1 X48.529 Y81.300 E0.09044
G1 X49.945 Y78.790 E0.09036
G1 X51.444 Y76.327 E0.09040
G1 X53.024 Y73.915 E0.09040
G1 X54.683 Y71.558 E0.09038
G1 X56.420 Y69.255 E0.09046
G1 X58.230 Y67.013 E0.09034
G1 X60.115 Y64.832 E0.09038
G1 X62.072 Y62.712 E0.09047
G1 X64.096 Y60.661 E0.09034
G1 X66.188 Y58.677 E0.09040
G1 X68.345 Y56.764 E0.09040
G1 X70.563 Y54.923 E0.09038
G1 X72.383 Y53.507 E0.07233
G1 X75.177 Y51.468 E0.10843
G1 X77.568 Y49.855 E0.09043
G1 X80.011 Y48.324 E0.09040
G1 X82.502 Y46.874 E0.09037
G1 X84.531 Y45.776 E0.07233
G1 X87.623 Y44.227 E0.10844
G1 X90.247 Y43.031 E0.09041
G1 X92.375 Y42.140 E0.07233
G1 X95.605 Y40.905 E0.10844
G1 X98.336 Y39.976 E0.09043
G1 X101.094 Y39.138 E0.09039
G1 X103.878 Y38.392 E0.09037
G1 X106.124 Y37.863 E0.07234
G1 X109.514 Y37.179 E0.10844
G1 X112.360 Y36.712 E0.09043
G1 X115.219 Y36.341 E0.09039
G1 X118.088 Y36.064 E0.09036
G1 X120.390 Y35.912 E0.07234
G1 X123.846 Y35.797 E0.10842
G1 X126.153 Y35.797 E0.07234
G1 X129.034 Y35.883 E0.09036
G1 X131.911 Y36.064 E0.09039
G1 X134.782 Y36.341 E0.09043
G1 X138.210 Y36.799 E0.10844
G1 X140.486 Y37.179 E0.07234
G1 X143.314 Y37.739 E0.09040
G1 X146.680 Y38.535 E0.10844
G1 X148.906 Y39.138 E0.07234
G1 X151.665 Y39.976 E0.09040
G1 X154.935 Y41.103 E0.10844
G1 X157.091 Y41.924 E0.07233
G1 X159.752 Y43.031 E0.09037
G1 X162.376 Y44.226 E0.09039
G1 X164.959 Y45.508 E0.09043
G1 X167.998 Y47.160 E0.10844
G1 X169.990 Y48.324 E0.07233
M73 Q1 S80
G1 X172.432 Y49.855 E0.09037
G1 X174.822 Y51.467 E0.09039
G1 X177.159 Y53.157 E0.09043
M73 P1 R79
G1 X179.883 Y55.288 E0.10843
G1 X181.656 Y56.764 E0.07233
G1 X183.812 Y58.677 E0.09038
G1 X185.904 Y60.661 E0.09040
G1 X187.929 Y62.713 E0.09040
G1 X189.884 Y64.830 E0.09034
G1 X191.770 Y67.013 E0.09047
G1 X193.581 Y69.256 E0.09038
G1 X195.317 Y71.558 E0.09040
G1 X196.976 Y73.915 E0.09040
G1 X198.555 Y76.326 E0.09035
G1 X198.862 Y76.824 E0.01834
G1 X200.055 Y78.790 E0.07211
G1 X201.472 Y81.301 E0.09039
G1 X202.804 Y83.856 E0.09036
G1 X203.059 Y84.383 E0.01834
G1 X204.052 Y86.457 E0.07210
G1 X205.212 Y89.096 E0.09039
G1 X206.284 Y91.771 E0.09037
G1 X206.485 Y92.320 E0.01834
G1 X207.268 Y94.482 E0.07209
G1 X208.160 Y97.223 E0.09039
G1 X208.961 Y99.992 E0.09038
G1 X209.107 Y100.559 E0.01834
G1 X209.671 Y102.788 E0.07208
G1 X210.287 Y105.604 E0.09039
G1 X210.810 Y108.439 E0.09038
G1 X211.238 Y111.290 E0.09041
G1 X211.572 Y114.154 E0.09039
G1 X211.810 Y117.027 E0.09040
G1 X211.954 Y119.906 E0.09040
G1 X212.001 Y122.784 E0.09024
G1 X212.001 Y134.829 E0.37766
G1 X211.972 Y135.175 E0.01088
G1 X211.881 Y135.535 E0.01164
G1 X211.731 Y135.874 E0.01164
G1 X211.527 Y136.185 E0.01164
G1 X211.275 Y136.457 E0.01164
G1 X210.981 Y136.684 E0.01164
G1 X210.654 Y136.859 E0.01164
G1 X210.302 Y136.978 E0.01164
G1 X209.994 Y137.028 E0.00976
G1 X209.934 Y136.655 F10800.000
G1 F1200
G1 X209.598 Y136.658 E0.01056
G1 X209.294 Y136.605 E0.00968
G1 X209.003 Y136.502 E0.00968
G1 X208.732 Y136.353 E0.00968
G1 X208.491 Y136.161 E0.00968
G1 X208.284 Y135.932 E0.00968
G1 X208.118 Y135.672 E0.00968
G1 X208.001 Y135.398 E0.00935
G1 X207.050 Y132.669 E0.09061
G1 X206.014 Y129.982 E0.09028
G1 X204.889 Y127.332 E0.09028
G1 X203.678 Y124.719 E0.09028
G1 X202.381 Y122.148 E0.09028
G1 X201.000 Y119.622 E0.09028
G1 X199.537 Y117.142 E0.09028
G1 X197.993 Y114.711 E0.09028
G1 X196.370 Y112.333 E0.09028
G1 X194.669 Y110.010 E0.09028
G1 X192.893 Y107.743 E0.09028
G1 X191.043 Y105.537 E0.09028
G1 X189.121 Y103.392 E0.09028
G1 X187.130 Y101.313 E0.09028
G1 X185.071 Y99.299 E0.09028
G1 X182.947 Y97.355 E0.09028
G1 X180.761 Y95.482 E0.09028
G1 X178.513 Y93.682 E0.09028
G1 X176.208 Y91.957 E0.09028
G1 X173.847 Y90.308 E0.09028
G1 X171.433 Y88.739 E0.09028
G1 X168.969 Y87.249 E0.09028
G1 X166.457 Y85.842 E0.09028
G1 X163.899 Y84.518 E0.09028
G1 X161.300 Y83.279 E0.09028
G1 X158.661 Y82.127 E0.09028
G1 X155.986 Y81.062 E0.09028
G1 X153.277 Y80.086 E0.09028
G1 X150.538 Y79.199 E0.09028
G1 X147.771 Y78.403 E0.09028
G1 X144.979 Y77.699 E0.09028
G1 X142.165 Y77.087 E0.09028
G1 X139.333 Y76.568 E0.09028
G1 X136.485 Y76.143 E0.09028
G1 X133.625 Y75.811 E0.09028
G1 X130.755 Y75.575 E0.09028
G1 X127.879 Y75.432 E0.09028
G1 X125.000 Y75.385 E0.09028
G1 X122.121 Y75.432 E0.09028
G1 X119.245 Y75.575 E0.09028
G1 X116.375 Y75.811 E0.09028
G1 X113.515 Y76.143 E0.09028
G1 X110.667 Y76.568 E0.09028
G1 X107.835 Y77.087 E0.09028
G1 X105.021 Y77.699 E0.09028
G1 X102.229 Y78.403 E0.09028
G1 X99.462 Y79.199 E0.09028
G1 X96.723 Y80.086 E0.09028
G1 X94.014 Y81.062 E0.09028
G1 X91.339 Y82.127 E0.09028
G1 X88.700 Y83.279 E0.09028
G1 X86.101 Y84.518 E0.09028
G1 X83.543 Y85.842 E0.09028
G1 X81.031 Y87.249 E0.09028
G1 X78.567 Y88.739 E0.09028
G1 X76.153 Y90.308 E0.09028
G1 X73.792 Y91.957 E0.09028
G1 X71.487 Y93.682 E0.09028
G1 X69.239 Y95.482 E0.09028
G1 X67.053 Y97.355 E0.09028
G1 X64.929 Y99.299 E0.09028
G1 X62.870 Y101.313 E0.09028
G1 X60.879 Y103.392 E0.09028
G1 X58.957 Y105.537 E0.09028
G1 X57.107 Y107.743 E0.09028
G1 X55.331 Y110.010 E0.09028
G1 X53.630 Y112.333 E0.09028
G1 X52.007 Y114.711 E0.09028
G1 X50.463 Y117.142 E0.09028
G1 X49.000 Y119.622 E0.09028
G1 X47.619 Y122.148 E0.09028
G1 X46.322 Y124.719 E0.09028
G1 X45.111 Y127.332 E0.09028
G1 X43.986 Y129.982 E0.09028
G1 X42.950 Y132.669 E0.09028
G1 X41.999 Y135.398 E0.09061
G1 X41.882 Y135.672 E0.00935
G1 X41.716 Y135.932 E0.00968
G1 X41.509 Y136.161 E0.00968
G1 X41.268 Y136.353 E0.00968
G1 X40.997 Y136.502 E0.00968
G1 X40.704 Y136.606 E0.00975
G1 X40.359 Y136.658 E0.01096
G1 X40.094 Y136.660 E0.00830
G1 X39.789 Y136.611 E0.00968
G1 X39.497 Y136.512 E0.00968
G1 X39.225 Y136.367 E0.00968
G1 X38.980 Y136.178 E0.00968
G1 X38.771 Y135.952 E0.00968
G1 X38.601 Y135.694 E0.00968
G1 X38.477 Y135.411 E0.00968
G1 X38.401 Y135.112 E0.00968
G1 X38.376 Y134.813 E0.00940
G1 X38.376 Y122.787 E0.37707
G1 X38.423 Y119.919 E0.08995
G1 X38.566 Y117.052 E0.09000
G1 X38.804 Y114.191 E0.09000
G1 X39.136 Y111.340 E0.09001
G1 X39.562 Y108.501 E0.09000
G1 X40.083 Y105.678 E0.09000
G1 X40.572 Y103.439 E0.07187
G1 X40.696 Y102.874 E0.01814
G1 X41.402 Y100.092 E0.09000
G1 X42.200 Y97.334 E0.09000
G1 X42.909 Y95.154 E0.07188
G1 X43.089 Y94.605 E0.01814
G1 X44.068 Y91.906 E0.09000
G1 X45.136 Y89.242 E0.09000
G1 X46.291 Y86.614 E0.09000
G1 X47.533 Y84.026 E0.09000
G1 X48.860 Y81.480 E0.09002
G1 X50.270 Y78.980 E0.08999
G1 X51.763 Y76.528 E0.09000
G1 X53.336 Y74.127 E0.09000
G1 X54.988 Y71.780 E0.09000
G1 X56.717 Y69.487 E0.09003
G1 X58.520 Y67.255 E0.08999
G1 X60.396 Y65.083 E0.09000
G1 X62.344 Y62.973 E0.09003
G1 X64.360 Y60.931 E0.08998
G1 X66.443 Y58.955 E0.09000
G1 X68.590 Y57.050 E0.09000
G1 X70.799 Y55.217 E0.09000
G1 X72.610 Y53.808 E0.07196
G1 X75.393 Y51.776 E0.10803
G1 X77.774 Y50.171 E0.09002
G1 X80.206 Y48.647 E0.09000
