; generated by PrusaSlicer 2.1.1+win64 on 2020-04-06 at 07:46:32 UTC

; 

; external perimeters extrusion width = 0.60mm
; perimeters extrusion width = 0.50mm
; infill extrusion width = 0.50mm
; solid infill extrusion width = 0.50mm
; top infill extrusion width = 0.45mm
; first layer extrusion width = 0.42mm

M73 P0 R79
M73 Q0 S80
M201 X1000 Y1000 Z1000 E5000 ; sets maximum accelerations, mm/sec^2
M203 X200 Y200 Z12 E120 ; sets maximum feedrates, mm/sec
M204 P1250 R1250 T1250 ; sets acceleration (P, T) and retract acceleration (R), mm/sec^2
M205 X8.00 Y8.00 Z0.40 E4.50 ; sets the jerk limits, mm/sec
M205 S0 T0 ; sets the minimum extruding and travel feed rate, mm/sec
M107
M862.3 P "MK3S" ; printer model check
M862.1 P0.4 ; nozzle diameter check
M115 U3.8.1 ; tell printer latest fw version
G90 ; use absolute coordinates
M83 ; extruder relative mode
M104 S215 ; set extruder temp
M140 S60 ; set bed temp
M190 S60 ; wait for bed temp
M109 S215 ; wait for extruder temp
G28 W ; home all without mesh bed level
G80 ; mesh bed leveling
G1 Y-3.0 F1000.0 ; go outside print area
G92 E0.0
G1 X60.0 E9.0 F1000.0 ; intro line
M73 Q0 S80
M73 P0 R79
G1 X100.0 E12.5 F1000.0 ; intro line
G92 E0.0
M221 S95
G21 ; set units to millimeters
G90 ; use absolute coordinates
M83 ; use relative distances for extrusion
M900 K30 ; Filament gcode
;BEFORE_LAYER_CHANGE
G92 E0.0
;0.2


G1 E-0.80000 F2100.00000
G1 Z0.600 F10800.000
;AFTER_LAYER_CHANGE
;0.2
G1 X28.618 Y86.420
G1 Z0.200
G1 E0.80000 F2100.00000
M204 S1000
G1 F1200
G1 X28.898 Y85.400 E0.03315
G1 X29.180 Y84.827 E0.02005
G1 X29.627 Y84.207 E0.02394
G1 X53.019 Y61.806 E1.01552
G1 X57.556 Y57.667 E0.19255
G1 X59.977 Y55.650 E0.09883
G1 X65.022 Y51.824 E0.19851
G1 X93.176 Y32.088 E1.07803
G1 X93.913 Y31.710 E0.02598
G1 X94.713 Y31.480 E0.02610
G1 X95.488 Y31.408 E0.02440
G1 X154.504 Y31.408 E1.85039
G1 X155.224 Y31.469 E0.02265
G1 X155.844 Y31.624 E0.02005
G1 X156.808 Y32.077 E0.03338
G1 X184.981 Y51.826 E1.07878
G1 X189.975 Y55.611 E0.19646
G1 X192.444 Y57.667 E0.10076
G1 X196.989 Y61.814 E0.19289
G1 X219.995 Y83.824 E0.99830
G1 X220.463 Y84.315 E0.02128
G1 X220.922 Y85.014 E0.02621
G1 X221.223 Y85.735 E0.02450
G1 X221.420 Y86.855 E0.03565
G1 X222.325 Y101.286 E0.45335
G1 X225.276 Y173.325 E2.26064
G1 X225.239 Y174.011 E0.02154
G1 X225.076 Y174.690 E0.02189
G1 X224.800 Y175.315 E0.02143
G1 X224.375 Y175.932 E0.02349
G1 X223.855 Y176.440 E0.02279
G1 X222.993 Y176.969 E0.03170
G1 X222.251 Y177.212 E0.02450
G1 X221.499 Y177.298 E0.02372
G1 X28.496 Y177.298 E6.05149
G1 X27.794 Y177.222 E0.02213
G1 X27.149 Y177.030 E0.02110
G1 X26.541 Y176.725 E0.02132
G1 X26.008 Y176.328 E0.02087
G1 X25.460 Y175.720 E0.02565
G1 X24.980 Y174.835 E0.03158
G1 X24.769 Y174.060 E0.02519
G1 X24.724 Y173.323 E0.02314
G1 X27.675 Y101.274 E2.26092
G1 X28.615 Y86.480 E0.46481
G1 F8640
G1 X28.898 Y85.400 E-0.25771
G1 X29.180 Y84.827 E-0.14765
G1 X29.627 Y84.207 E-0.17628
G1 X30.185 Y83.673 E-0.17836
G1 E-0.04000 F2100.00000
G1 Z0.800 F10800.000
G1 X31.204 Y158.518
G1 Z0.200
G1 E0.80000 F2100.00000
G1 F1200
G1 X31.280 Y158.421 E0.00387
G1 X31.394 Y158.334 E0.00447
G1 X31.508 Y158.289 E0.00387
G1 X31.650 Y158.270 E0.00447
G1 X31.831 Y158.306 E0.00580
G1 X31.982 Y158.400 E0.00556
G1 X32.087 Y158.533 E0.00531
G1 X32.132 Y158.648 E0.00387
G1 X32.151 Y158.797 E0.00472
G1 X32.138 Y158.911 E0.00360
G1 X31.727 Y160.868 E0.06270
G1 X31.668 Y161.353 E0.01532
G1 X31.695 Y161.867 E0.01612
G1 X31.809 Y162.368 E0.01612
G1 X32.007 Y162.842 E0.01611
G1 X32.268 Y163.251 E0.01521
G1 X32.628 Y163.653 E0.01694
G1 X33.037 Y163.970 E0.01621
G1 X33.491 Y164.210 E0.01611
G1 X33.953 Y164.360 E0.01522
G1 X34.487 Y164.441 E0.01694
G1 X35.003 Y164.426 E0.01620
G1 X35.506 Y164.322 E0.01610
G1 X35.958 Y164.145 E0.01522
G1 X36.423 Y163.868 E0.01695
G1 X36.784 Y163.552 E0.01505
G1 X35.187 Y171.159 E0.24373
G1 X34.983 Y170.725 E0.01505
G1 X34.670 Y170.284 E0.01695
G1 X34.327 Y169.940 E0.01522
G1 X33.906 Y169.642 E0.01618
G1 X33.416 Y169.414 E0.01695
G1 X32.948 Y169.284 E0.01522
G1 X32.434 Y169.233 E0.01619
G1 X31.896 Y169.277 E0.01694
G1 X31.425 Y169.395 E0.01521
G1 X30.953 Y169.604 E0.01620
G1 X30.507 Y169.909 E0.01693
G1 X30.156 Y170.243 E0.01521
G1 X29.850 Y170.656 E0.01612
G1 X29.619 Y171.116 E0.01612
G1 X29.478 Y171.584 E0.01532
G1 X29.034 Y173.651 E0.06628
G1 X28.940 Y173.801 E0.00556
G1 X28.801 Y173.911 E0.00556
G1 X28.632 Y173.966 E0.00556
G1 X28.455 Y173.960 E0.00556
G1 X28.291 Y173.894 E0.00556
G1 X28.158 Y173.776 E0.00556
G1 X28.110 Y173.702 E0.00279
G1 X28.055 Y173.533 E0.00556
G1 X28.063 Y173.330 E0.00636
G1 X31.134 Y158.700 E0.46871
G1 X31.177 Y158.572 E0.00425
G1 F8640
G1 X31.280 Y158.421 E-0.04216
G1 X31.394 Y158.334 E-0.03293
G1 X31.508 Y158.289 E-0.02849
G1 X31.650 Y158.270 E-0.03294
G1 X31.831 Y158.306 E-0.04272
G1 X31.982 Y158.400 E-0.04095
G1 X32.087 Y158.533 E-0.03913
G1 X32.132 Y158.648 E-0.02849
G1 X32.151 Y158.797 E-0.03476
G1 X32.138 Y158.911 E-0.02649
G1 X31.772 Y160.653 E-0.41093
G1 E-0.04000 F2100.00000
G1 Z0.800 F10800.000
G1 X40.359 Y136.089
G1 Z0.200
G1 E0.80000 F2100.00000
G1 F1200
G1 X40.032 Y135.914 E0.01164
G1 X39.738 Y135.687 E0.01164
G1 X39.486 Y135.414 E0.01164
G1 X39.283 Y135.104 E0.01164
G1 X39.133 Y134.764 E0.01164
G1 X39.042 Y134.405 E0.01164
G1 X39.013 Y134.059 E0.01087
G1 X39.013 Y121.851 E0.38279
G1 X39.062 Y118.952 E0.09091
G1 X39.209 Y116.051 E0.09107
G1 X39.454 Y113.157 E0.09107
G1 X39.797 Y110.272 E0.09107
G1 X40.236 Y107.401 E0.09107
G1 X40.773 Y104.547 E0.09107
G1 X41.406 Y101.712 E0.09107
G1 X42.134 Y98.900 E0.09107
G1 X42.956 Y96.114 E0.09107
G1 X43.872 Y93.358 E0.09107
G1 X44.881 Y90.634 E0.09107
G1 X45.103 Y90.094 E0.01832
G1 X45.981 Y87.946 E0.07275
G1 X47.172 Y85.297 E0.09107
G1 X48.451 Y82.689 E0.09107
G1 X49.817 Y80.126 E0.09107
G1 X51.270 Y77.611 E0.09107
G1 X52.806 Y75.146 E0.09107
G1 X54.425 Y72.734 E0.09107
G1 X56.124 Y70.378 E0.09107
G1 X57.902 Y68.082 E0.09107
G1 X59.757 Y65.846 E0.09107
G1 X61.685 Y63.675 E0.09107
G1 X63.687 Y61.569 E0.09107
G1 X65.758 Y59.533 E0.09107
G1 X67.896 Y57.568 E0.09107
G1 X70.100 Y55.676 E0.09107
G1 X72.367 Y53.859 E0.09107
G1 X74.693 Y52.120 E0.09107
G1 X77.077 Y50.461 E0.09107
G1 X79.516 Y48.883 E0.09107
G1 X82.006 Y47.389 E0.09107
G1 X84.546 Y45.979 E0.09107
G1 X87.132 Y44.656 E0.09107
G1 X89.761 Y43.421 E0.09107
G1 X92.430 Y42.276 E0.09107
G1 X95.136 Y41.221 E0.09107
G1 X97.877 Y40.259 E0.09107
G1 X100.648 Y39.389 E0.09107
G1 X103.447 Y38.614 E0.09107
G1 X106.271 Y37.933 E0.09107
G1 X109.116 Y37.348 E0.09107
G1 X111.979 Y36.860 E0.09107
G1 X114.857 Y36.469 E0.09107
G1 X117.747 Y36.175 E0.09107
G1 X120.645 Y35.979 E0.09107
G1 X123.548 Y35.881 E0.09107
G1 X126.452 Y35.881 E0.09107
G1 X129.355 Y35.979 E0.09107
G1 X132.253 Y36.175 E0.09107
G1 X135.143 Y36.469 E0.09107
G1 X138.021 Y36.860 E0.09107
G1 X140.884 Y37.348 E0.09107
G1 X143.729 Y37.933 E0.09107
G1 X146.553 Y38.614 E0.09107
G1 X149.352 Y39.389 E0.09107
G1 X152.123 Y40.259 E0.09107
G1 X154.864 Y41.221 E0.09107
G1 X157.570 Y42.276 E0.09107
G1 X160.239 Y43.421 E0.09107
G1 X162.868 Y44.656 E0.09107
G1 X165.454 Y45.979 E0.09107
G1 X167.994 Y47.389 E0.09107
G1 X170.484 Y48.883 E0.09107
G1 X170.975 Y49.201 E0.01832
G1 X172.923 Y50.461 E0.07275
G1 X175.307 Y52.120 E0.09107
G1 X177.633 Y53.859 E0.09107
G1 X179.900 Y55.676 E0.09107
G1 X182.104 Y57.568 E0.09107
G1 X184.242 Y59.533 E0.09107
G1 X186.313 Y61.569 E0.09107
G1 X188.315 Y63.675 E0.09107
G1 X190.243 Y65.846 E0.09107
G1 X192.098 Y68.082 E0.09107
G1 X193.876 Y70.378 E0.09107
G1 X195.575 Y72.734 E0.09107
G1 X197.194 Y75.146 E0.09107
G1 X198.730 Y77.611 E0.09107
G1 X199.022 Y78.117 E0.01832
G1 X200.183 Y80.126 E0.07275
G1 X201.549 Y82.689 E0.09107
G1 X202.828 Y85.297 E0.09107
G1 X204.019 Y87.946 E0.09107
G1 X205.119 Y90.634 E0.09107
G1 X206.128 Y93.358 E0.09107
G1 X206.312 Y93.912 E0.01832
G1 X207.044 Y96.114 E0.07275
G1 X207.866 Y98.900 E0.09107
G1 X208.594 Y101.712 E0.09107
G1 X209.227 Y104.547 E0.09107
G1 X209.764 Y107.401 E0.09107
G1 X210.203 Y110.272 E0.09107
G1 X210.546 Y113.157 E0.09107
G1 X210.791 Y116.051 E0.09107
G1 X210.938 Y118.952 E0.09107
G1 X210.987 Y121.851 E0.09091
G1 X210.987 Y134.059 E0.38279
G1 X210.958 Y134.405 E0.01087
G1 X210.867 Y134.764 E0.01164
G1 X210.717 Y135.104 E0.01164
G1 X210.514 Y135.414 E0.01164
G1 X210.262 Y135.687 E0.01164
G1 X209.968 Y135.914 E0.01164
G1 X209.641 Y136.089 E0.01164
G1 X209.283 Y136.210 E0.01184
G1 X208.875 Y136.267 E0.01292
G1 X208.552 Y136.265 E0.01014
G1 X208.186 Y136.202 E0.01164
G1 X207.836 Y136.079 E0.01164
G1 X207.511 Y135.900 E0.01164
G1 X207.220 Y135.670 E0.01164
G1 X206.971 Y135.395 E0.01164
G1 X206.771 Y135.082 E0.01164
G1 X206.637 Y134.768 E0.01072
G1 X205.678 Y132.035 E0.09081
G1 X204.639 Y129.362 E0.08990
G1 X203.512 Y126.726 E0.08990
G1 X202.297 Y124.129 E0.08990
G1 X200.997 Y121.574 E0.08990
G1 X199.612 Y119.063 E0.08990
G1 X198.145 Y116.600 E0.08990
G1 X196.596 Y114.187 E0.08990
G1 X196.272 Y113.718 E0.01788
G1 X194.967 Y111.828 E0.07202
G1 X193.261 Y109.523 E0.08990
G1 X191.479 Y107.277 E0.08990
G1 X189.623 Y105.092 E0.08990
G1 X187.695 Y102.970 E0.08990
G1 X185.697 Y100.913 E0.08990
G1 X183.633 Y98.924 E0.08990
G1 X181.502 Y97.005 E0.08990
G1 X179.310 Y95.157 E0.08990
G1 X177.057 Y93.384 E0.08990
G1 X174.745 Y91.687 E0.08990
G1 X172.379 Y90.068 E0.08990
G1 X169.960 Y88.529 E0.08990
G1 X167.491 Y87.071 E0.08990
G1 X164.975 Y85.697 E0.08990
G1 X162.415 Y84.407 E0.08990
G1 X159.813 Y83.203 E0.08990
G1 X157.172 Y82.086 E0.08990
G1 X154.495 Y81.058 E0.08990
G1 X151.786 Y80.120 E0.08990
G1 X149.047 Y79.273 E0.08990
G1 X146.281 Y78.517 E0.08990
G1 X143.492 Y77.854 E0.08990
G1 X140.682 Y77.285 E0.08990
G1 X137.854 Y76.809 E0.08990
G1 X135.013 Y76.428 E0.08990
G1 X132.160 Y76.141 E0.08990
G1 X129.299 Y75.950 E0.08990
G1 X126.434 Y75.855 E0.08990
G1 X123.566 Y75.855 E0.08990
G1 X120.701 Y75.950 E0.08990
G1 X117.840 Y76.141 E0.08990
G1 X114.987 Y76.428 E0.08990
G1 X112.146 Y76.809 E0.08990
G1 X109.318 Y77.285 E0.08990
G1 X106.508 Y77.854 E0.08990
G1 X103.719 Y78.517 E0.08990
G1 X100.953 Y79.273 E0.08990
M73 Q1 S79
G1 X98.214 Y80.120 E0.08990
G1 X95.505 Y81.058 E0.08990
G1 X92.828 Y82.086 E0.08990
G1 X90.187 Y83.203 E0.08990
M73 P1 R78
G1 X87.585 Y84.407 E0.08990
G1 X85.025 Y85.697 E0.08990
G1 X82.509 Y87.071 E0.08990
G1 X80.040 Y88.529 E0.08990
G1 X77.621 Y90.068 E0.08990
G1 X75.255 Y91.687 E0.08990
G1 X72.944 Y93.384 E0.08990
G1 X70.690 Y95.157 E0.08990
G1 X68.498 Y97.005 E0.08990
G1 X66.367 Y98.924 E0.08990
G1 X64.303 Y100.913 E0.08990
G1 X62.305 Y102.970 E0.08990
G1 X60.377 Y105.092 E0.08990
G1 X58.521 Y107.277 E0.08990
G1 X56.739 Y109.523 E0.08990
G1 X55.033 Y111.828 E0.08990
G1 X53.404 Y114.187 E0.08990
G1 X51.855 Y116.600 E0.08990
G1 X50.388 Y119.063 E0.08990
G1 X49.003 Y121.574 E0.08990
G1 X47.703 Y124.129 E0.08990
G1 X46.488 Y126.726 E0.08990
G1 X45.361 Y129.362 E0.08990
G1 X44.322 Y132.035 E0.08990
G1 X43.363 Y134.768 E0.09081
G1 X43.229 Y135.082 E0.01072
G1 X43.029 Y135.395 E0.01164
G1 X42.780 Y135.670 E0.01164
G1 X42.489 Y135.900 E0.01164
G1 X42.164 Y136.079 E0.01164
G1 X41.814 Y136.202 E0.01164
G1 X41.448 Y136.265 E0.01164
G1 X41.077 Y136.267 E0.01164
G1 X40.711 Y136.208 E0.01164
G1 X40.416 Y136.108 E0.00976
G1 X40.537 Y135.751 F10800.000
G1 F1200
G1 X40.238 Y135.596 E0.01056
G1 X39.994 Y135.408 E0.00967
G1 X39.784 Y135.181 E0.00967
G1 X39.615 Y134.923 E0.00967
G1 X39.491 Y134.641 E0.00967
G1 X39.415 Y134.342 E0.00967
G1 X39.390 Y134.044 E0.00940
G1 X39.390 Y121.854 E0.38220
G1 X39.439 Y118.964 E0.09062
G1 X39.585 Y116.076 E0.09067
G1 X39.829 Y113.195 E0.09067
G1 X40.170 Y110.323 E0.09067
G1 X40.608 Y107.465 E0.09067
G1 X41.142 Y104.623 E0.09067
G1 X41.772 Y101.800 E0.09067
G1 X42.497 Y99.001 E0.09067
G1 X43.316 Y96.227 E0.09067
G1 X44.228 Y93.483 E0.09067
G1 X45.233 Y90.771 E0.09067
G1 X45.451 Y90.237 E0.01812
G1 X46.328 Y88.095 E0.07255
G1 X47.513 Y85.457 E0.09067
G1 X48.787 Y82.861 E0.09067
G1 X50.147 Y80.309 E0.09067
G1 X51.593 Y77.805 E0.09067
G1 X53.123 Y75.351 E0.09067
G1 X54.734 Y72.949 E0.09067
G1 X56.426 Y70.604 E0.09067
G1 X58.196 Y68.317 E0.09067
G1 X60.043 Y66.092 E0.09067
G1 X61.963 Y63.930 E0.09067
G1 X63.956 Y61.834 E0.09067
G1 X66.018 Y59.806 E0.09067
G1 X68.147 Y57.850 E0.09067
G1 X70.341 Y55.966 E0.09067
G1 X72.598 Y54.157 E0.09067
G1 X74.914 Y52.426 E0.09067
G1 X77.287 Y50.774 E0.09067
G1 X79.715 Y49.203 E0.09067
G1 X82.195 Y47.715 E0.09067
G1 X84.723 Y46.312 E0.09067
G1 X87.298 Y44.995 E0.09067
G1 X89.915 Y43.765 E0.09067
G1 X92.573 Y42.625 E0.09067
G1 X95.267 Y41.575 E0.09067
G1 X97.996 Y40.616 E0.09067
G1 X100.755 Y39.751 E0.09067
G1 X103.542 Y38.979 E0.09067
G1 X106.353 Y38.301 E0.09067
G1 X109.186 Y37.719 E0.09067
G1 X112.036 Y37.233 E0.09067
G1 X114.902 Y36.843 E0.09067
G1 X117.779 Y36.551 E0.09067
G1 X120.664 Y36.356 E0.09067
G1 X123.554 Y36.258 E0.09067
G1 X126.446 Y36.258 E0.09067
G1 X129.336 Y36.356 E0.09067
G1 X132.221 Y36.551 E0.09067
G1 X135.098 Y36.843 E0.09067
G1 X137.964 Y37.233 E0.09067
G1 X140.814 Y37.719 E0.09067
G1 X143.647 Y38.301 E0.09067
G1 X146.458 Y38.979 E0.09067
G1 X149.245 Y39.751 E0.09067
G1 X152.004 Y40.616 E0.09067
G1 X154.733 Y41.575 E0.09067
G1 X157.427 Y42.625 E0.09067
G1 X160.085 Y43.765 E0.09067
G1 X162.702 Y44.995 E0.09067
G1 X165.277 Y46.312 E0.09067
G1 X167.805 Y47.715 E0.09067
G1 X170.285 Y49.203 E0.09067
G1 X170.770 Y49.517 E0.01812
G1 X172.713 Y50.774 E0.07255
G1 X175.086 Y52.426 E0.09067
G1 X177.402 Y54.157 E0.09067
G1 X179.659 Y55.966 E0.09067
G1 X181.853 Y57.850 E0.09067
G1 X183.982 Y59.806 E0.09067
G1 X186.045 Y61.834 E0.09067
G1 X188.037 Y63.930 E0.09067
G1 X189.957 Y66.092 E0.09067
G1 X191.804 Y68.317 E0.09067
G1 X193.574 Y70.604 E0.09067
G1 X195.266 Y72.949 E0.09067
G1 X196.877 Y75.351 E0.09067
G1 X198.407 Y77.805 E0.09067
G1 X198.696 Y78.305 E0.01812
G1 X199.853 Y80.309 E0.07255
G1 X201.213 Y82.861 E0.09067
G1 X202.487 Y85.457 E0.09067
G1 X203.672 Y88.095 E0.09067
G1 X204.767 Y90.771 E0.09067
G1 X205.772 Y93.483 E0.09067
G1 X205.954 Y94.031 E0.01812
G1 X206.684 Y96.227 E0.07255
G1 X207.503 Y99.001 E0.09067
G1 X208.228 Y101.800 E0.09067
G1 X208.858 Y104.623 E0.09067
G1 X209.392 Y107.465 E0.09067
G1 X209.830 Y110.323 E0.09067
G1 X210.171 Y113.195 E0.09067
G1 X210.415 Y116.076 E0.09067
G1 X210.561 Y118.964 E0.09067
G1 X210.610 Y121.854 E0.09062
G1 X210.610 Y134.044 E0.38220
G1 X210.585 Y134.342 E0.00940
G1 X210.509 Y134.641 E0.00967
G1 X210.385 Y134.923 E0.00967
G1 X210.216 Y135.181 E0.00967
G1 X210.006 Y135.408 E0.00967
G1 X209.762 Y135.596 E0.00967
G1 X209.490 Y135.742 E0.00967
G1 X209.196 Y135.842 E0.00974
G1 X208.850 Y135.890 E0.01095
G1 X208.585 Y135.888 E0.00830
G1 X208.282 Y135.836 E0.00967
G1 X207.991 Y135.734 E0.00967
G1 X207.720 Y135.585 E0.00967
G1 X207.479 Y135.394 E0.00967
G1 X207.272 Y135.165 E0.00967
G1 X207.105 Y134.905 E0.00967
G1 X206.988 Y134.631 E0.00934
G1 X206.032 Y131.904 E0.09062
G1 X204.988 Y129.220 E0.09029
G1 X203.856 Y126.572 E0.09029
G1 X202.636 Y123.963 E0.09029
G1 X201.330 Y121.397 E0.09029
G1 X199.939 Y118.875 E0.09029
G1 X198.465 Y116.402 E0.09029
G1 X196.910 Y113.978 E0.09029
G1 X196.582 Y113.504 E0.01808
G1 X195.274 Y111.608 E0.07222
G1 X193.560 Y109.294 E0.09029
G1 X191.770 Y107.038 E0.09029
G1 X189.906 Y104.843 E0.09029
G1 X187.970 Y102.712 E0.09029
G1 X185.964 Y100.646 E0.09029
G1 X183.890 Y98.648 E0.09029
G1 X181.750 Y96.720 E0.09029
G1 X179.548 Y94.865 E0.09029
G1 X177.285 Y93.084 E0.09029
G1 X174.964 Y91.380 E0.09029
G1 X172.587 Y89.754 E0.09029
G1 X170.157 Y88.208 E0.09029
G1 X167.678 Y86.744 E0.09029
G1 X165.151 Y85.363 E0.09029
G1 X162.579 Y84.067 E0.09029
G1 X159.965 Y82.858 E0.09029
G1 X157.313 Y81.736 E0.09029
G1 X154.625 Y80.704 E0.09029
G1 X151.903 Y79.762 E0.09029
G1 X149.152 Y78.911 E0.09029
G1 X146.374 Y78.152 E0.09029
G1 X143.573 Y77.486 E0.09029
G1 X140.751 Y76.914 E0.09029
G1 X137.911 Y76.436 E0.09029
G1 X135.057 Y76.053 E0.09029
G1 X132.191 Y75.766 E0.09029
G1 X129.318 Y75.574 E0.09029
G1 X126.440 Y75.478 E0.09029
G1 X123.560 Y75.478 E0.09029
G1 X120.682 Y75.574 E0.09029
G1 X120.107 Y75.612 E0.01808
G1 X117.809 Y75.766 E0.07222
