;FLAVOR:Marlin
;TIME:2899
;Filament used: 1.78746m
;Layer height: 0.3
;MINX:43.42
;MINY:78.483
;MINZ:0.3
;MAXX:166.574
;MAXY:113.512
;MAXZ:18
;Generated with Cura_SteamEngine master
M140 S60
M105
M190 S60
M104 S191
M105
M109 S191
M82 ;absolute extrusion mode
G21 ;metric values
G90 ;absolute positioning
M82 ;set extruder to absolute mode
M107 ;start with the fan off
G28 X0 Y0 ;move X/Y to min endstops
G28 Z0 ;move Z to min endstops
G1 Z15.0 F9000 ;move the platform down 15mm
G92 E0 ;zero the extruded length
G1 F200 E3 ;extrude 3mm of feed stock
G92 E0 ;zero the extruded length again
G1 F9000
M117 Printing...
G92 E0
G92 E0
G1 F1500 E-4
;LAYER_COUNT:60
;LAYER:0
M107
M204 S1000
G0 F6000 X62.39 Y91.762 Z0.3
;TYPE:SKIRT
G1 F1500 E0
G1 F1080 X63.555 Y90.975 E0.07014
G1 X64.029 Y90.662 E0.09848
G1 X65.107 Y89.971 E0.16236
G1 X65.717 Y89.591 E0.19822
G1 X66.749 Y88.968 E0.25836
G1 X67.354 Y88.613 E0.29335
G1 X68.46 Y87.984 E0.35683
G1 X69.027 Y87.67 E0.38917
G1 X70.154 Y87.066 E0.45296
G1 X70.731 Y86.767 E0.48538
G1 X71.93 Y86.166 E0.55229
G1 X72.463 Y85.906 E0.58188
G1 X73.649 Y85.347 E0.64729
G1 X74.234 Y85.082 E0.67933
G1 X75.401 Y84.569 E0.74293
G1 X76.041 Y84.297 E0.77763
G1 X77.172 Y83.835 E0.83858
G1 X77.854 Y83.566 E0.87516
G1 X78.999 Y83.133 E0.93623
G1 X79.551 Y82.932 E0.96554
G1 X80.874 Y82.467 E1.0355
G1 X81.458 Y82.271 E1.06623
G1 X82.663 Y81.884 E1.12937
G1 X83.252 Y81.703 E1.16012
G1 X84.571 Y81.317 E1.22868
G1 X85.177 Y81.148 E1.26007
G1 X86.399 Y80.825 E1.32313
G1 X87.024 Y80.667 E1.35529
G1 X88.317 Y80.36 E1.42159
G1 X88.923 Y80.225 E1.45257
G1 X90.19 Y79.957 E1.51718
G1 X90.824 Y79.833 E1.54941
G1 X92.093 Y79.6 E1.61377
G1 X92.706 Y79.496 E1.64479
G1 X94.049 Y79.285 E1.71262
G1 X94.622 Y79.203 E1.7415
G1 X95.937 Y79.031 E1.80766
G1 X96.607 Y78.952 E1.84132
G1 X97.84 Y78.824 E1.90316
G1 X98.485 Y78.765 E1.93548
G1 X99.809 Y78.661 E2.00174
G1 X100.453 Y78.619 E2.03393
G1 X101.712 Y78.554 E2.09683
G1 X102.383 Y78.527 E2.13033
G1 X103.666 Y78.494 E2.19436
G1 X104.347 Y78.484 E2.22834
G1 X105.67 Y78.483 E2.29435
G1 X106.277 Y78.491 E2.32463
G1 X107.591 Y78.525 E2.39021
G1 X108.208 Y78.548 E2.42101
G1 X109.522 Y78.616 E2.48666
G1 X110.121 Y78.654 E2.5166
G1 X111.473 Y78.759 E2.58426
G1 X112.077 Y78.814 E2.61451
G1 X113.386 Y78.95 E2.68017
G1 X114.015 Y79.023 E2.71176
G1 X115.318 Y79.192 E2.77732
G1 X115.925 Y79.279 E2.80791
G1 X117.238 Y79.485 E2.87421
G1 X117.796 Y79.579 E2.90245
G1 X119.177 Y79.832 E2.97249
G1 X119.747 Y79.944 E3.00147
G1 X121.013 Y80.209 E3.066
G1 X121.691 Y80.361 E3.10067
G1 X122.885 Y80.643 E3.16188
G1 X123.512 Y80.8 E3.19412
G1 X124.821 Y81.146 E3.26167
G1 X125.391 Y81.305 E3.29119
G1 X126.675 Y81.679 E3.35792
G1 X127.289 Y81.868 E3.38997
G1 X128.492 Y82.254 E3.453
G1 X129.082 Y82.451 E3.48403
G1 X130.372 Y82.902 E3.55221
G1 X130.941 Y83.109 E3.58242
G1 X132.179 Y83.578 E3.64846
G1 X132.744 Y83.801 E3.67877
G1 X133.945 Y84.29 E3.74346
G1 X134.513 Y84.531 E3.77425
G1 X135.779 Y85.087 E3.84323
G1 X136.302 Y85.326 E3.87192
G1 X137.462 Y85.869 E3.93582
G1 X138.054 Y86.157 E3.96866
G1 X139.209 Y86.736 E4.03312
G1 X139.82 Y87.054 E4.06748
G1 X140.929 Y87.647 E4.13023
G1 X141.47 Y87.944 E4.16102
G1 X142.646 Y88.613 E4.22852
G1 X143.189 Y88.931 E4.25991
G1 X144.301 Y89.602 E4.32471
G1 X144.809 Y89.918 E4.35455
G1 X145.97 Y90.66 E4.42329
G1 X146.412 Y90.951 E4.4497
G1 X147.594 Y91.751 E4.5209
G1 X148.059 Y92.075 E4.54918
G1 X149.148 Y92.852 E4.61592
G1 X149.595 Y93.181 E4.64361
G1 X150.746 Y94.049 E4.71553
G1 X151.17 Y94.377 E4.74228
G1 X152.164 Y95.168 E4.80565
G1 X152.703 Y95.608 E4.84037
G1 X153.687 Y96.433 E4.90443
G1 X154.173 Y96.852 E4.93644
G1 X155.15 Y97.715 E5.00148
G1 X155.624 Y98.146 E5.03344
G1 X156.569 Y99.025 E5.09783
G1 X156.989 Y99.426 E5.1268
G1 X158.011 Y100.428 E5.19821
G1 X158.446 Y100.867 E5.22904
G1 X159.313 Y101.761 E5.29117
G1 X159.764 Y102.239 E5.32396
G1 X160.629 Y103.18 E5.38773
G1 X161.09 Y103.694 E5.42217
G1 X161.892 Y104.614 E5.48306
G1 X162.288 Y105.079 E5.51353
G1 X163.169 Y106.141 E5.58238
G1 X163.585 Y106.656 E5.6154
G1 X164.356 Y107.638 E5.67769
G1 X164.744 Y108.144 E5.7095
G1 X165.554 Y109.231 E5.77714
G1 X165.85 Y109.64 E5.80232
G1 X166.285 Y110.258 E5.84003
G1 X166.457 Y110.571 E5.85785
G1 X166.555 Y110.915 E5.87569
G1 X166.574 Y111.272 E5.89353
G1 X166.514 Y111.624 E5.91134
G1 X166.377 Y111.954 E5.92917
G1 X166.17 Y112.245 E5.94698
G1 X165.795 Y112.554 E5.97123
G1 X165.504 Y112.727 E5.98812
G1 X165.349 Y112.808 E5.99684
G1 X164.872 Y113.025 E6.02299
G1 X164.723 Y113.084 E6.03098
G1 X164.263 Y113.24 E6.05521
G1 X164.122 Y113.281 E6.06254
G1 X163.626 Y113.396 E6.08794
G1 X163.202 Y113.464 E6.10937
G1 X162.848 Y113.497 E6.1271
G1 X162.419 Y113.512 E6.14852
G1 X162.063 Y113.506 E6.16628
G1 X161.87 Y113.491 E6.17594
G1 X161.121 Y113.387 E6.21367
G1 X160.921 Y113.346 E6.22385
G1 X160.428 Y113.212 E6.24934
G1 X160.305 Y113.173 E6.25578
G1 X159.96 Y113.046 E6.27412
G1 X159.551 Y112.87 E6.29633
G1 X159.266 Y112.721 E6.31238
G1 X158.801 Y112.446 E6.33933
G1 X157.639 Y111.71 E6.40795
G1 X155.243 Y110.24 E6.54819
G1 X152.842 Y108.86 E6.68636
G1 X150.375 Y107.531 E6.82616
G1 X147.901 Y106.289 E6.96427
G1 X145.361 Y105.103 E7.10412
G1 X142.819 Y104.002 E7.24233
G1 X140.214 Y102.958 E7.38234
G1 X137.634 Y102.012 E7.51944
G1 X134.994 Y101.126 E7.65837
G1 X132.31 Y100.308 E7.79835
G1 X129.627 Y99.573 E7.93714
G1 X126.934 Y98.917 E8.07542
G1 X124.214 Y98.334 E8.21421
G1 X121.457 Y97.826 E8.35407
G1 X118.721 Y97.401 E8.49221
G1 X115.966 Y97.053 E8.63075
G1 X113.205 Y96.782 E8.76916
G1 X110.438 Y96.59 E8.90753
G1 X107.631 Y96.474 E9.04769
G1 X104.86 Y96.438 E9.18595
G1 X102.053 Y96.482 E9.32601
G1 X99.316 Y96.601 E9.46269
G1 X96.516 Y96.804 E9.60275
G1 X93.756 Y97.081 E9.74114
G1 X90.971 Y97.441 E9.88124
G1 X88.263 Y97.87 E10.01803
G1 X85.501 Y98.388 E10.15822
G1 X82.763 Y98.981 E10.29799
G1 X80.115 Y99.634 E10.43406
G1 X77.405 Y100.383 E10.57433
G1 X74.761 Y101.196 E10.71233
G1 X72.082 Y102.103 E10.85344
G1 X69.502 Y103.059 E10.99071
G1 X66.902 Y104.107 E11.13057
G1 X64.382 Y105.207 E11.26775
G1 X61.844 Y106.4 E11.40766
G1 X59.359 Y107.657 E11.54659
G1 X56.924 Y108.975 E11.68473
G1 X54.494 Y110.382 E11.82482
G1 X51.448 Y112.278 E12.00382
G1 X51.033 Y112.547 E12.02849
G1 X50.906 Y112.621 E12.03583
G1 X50.362 Y112.906 E12.06647
G1 X50.193 Y112.983 E12.07573
G1 X49.805 Y113.132 E12.09647
G1 X49.679 Y113.174 E12.10309
G1 X49.254 Y113.298 E12.12518
G1 X49.111 Y113.333 E12.13253
G1 X48.601 Y113.432 E12.15844
G1 X48.448 Y113.454 E12.16616
G1 X47.966 Y113.5 E12.19031
G1 X47.814 Y113.507 E12.1979
G1 X47.241 Y113.503 E12.22649
G1 X46.903 Y113.477 E12.2434
G1 X46.473 Y113.415 E12.26508
G1 X46.186 Y113.359 E12.27967
G1 X46.052 Y113.327 E12.28654
G1 X45.597 Y113.197 E12.31015
G1 X45.442 Y113.144 E12.31832
G1 X44.915 Y112.933 E12.34664
G1 X44.775 Y112.869 E12.35432
G1 X44.284 Y112.615 E12.3819
G1 X43.987 Y112.417 E12.39971
G1 X43.741 Y112.157 E12.41757
G1 X43.56 Y111.85 E12.43535
G1 X43.45 Y111.51 E12.45318
G1 X43.42 Y111.154 E12.471
G1 X43.468 Y110.8 E12.48882
G1 X43.594 Y110.466 E12.50663
G1 X43.707 Y110.279 E12.51753
G1 X44.09 Y109.73 E12.55093
G1 X44.402 Y109.295 E12.57764
G1 X45.243 Y108.161 E12.64807
G1 X45.614 Y107.674 E12.67862
G1 X46.388 Y106.689 E12.74111
G1 X46.816 Y106.158 E12.77514
G1 X47.625 Y105.18 E12.83846
G1 X48.081 Y104.644 E12.87357
G1 X48.858 Y103.754 E12.93252
G1 X49.358 Y103.196 E12.96989
G1 X50.185 Y102.296 E13.03087
G1 X50.684 Y101.764 E13.06726
G1 X51.585 Y100.834 E13.13187
G1 X51.955 Y100.462 E13.15804
G1 X52.969 Y99.466 E13.22895
G1 X53.375 Y99.078 E13.25697
G1 X54.371 Y98.149 E13.32492
G1 X54.783 Y97.776 E13.35265
G1 X55.816 Y96.861 E13.4215
G1 X56.29 Y96.454 E13.45266
G1 X57.242 Y95.654 E13.5147
G1 X57.784 Y95.211 E13.54963
G1 X58.757 Y94.434 E13.61175
G1 X59.311 Y94.004 E13.64674
G1 X60.315 Y93.246 E13.7095
G1 X60.873 Y92.837 E13.74401
G1 X61.885 Y92.113 E13.80609
G1 X62.39 Y91.762 E13.83678
G0 F6000 X62.618 Y92.091
G1 F1080 X63.779 Y91.306 E13.9067
G1 X64.249 Y90.996 E13.93479
G1 X65.323 Y90.308 E13.99842
G1 X65.928 Y89.931 E14.03398
G1 X66.956 Y89.311 E14.09388
G1 X67.557 Y88.958 E14.12865
G1 X68.658 Y88.332 E14.19184
G1 X69.221 Y88.019 E14.22397
G1 X70.343 Y87.419 E14.28745
G1 X70.915 Y87.122 E14.31961
G1 X72.109 Y86.523 E14.38625
G1 X72.638 Y86.266 E14.41559
G1 X73.82 Y85.709 E14.48078
G1 X74.399 Y85.446 E14.51251
G1 X75.562 Y84.935 E14.57589
G1 X76.197 Y84.665 E14.61031
G1 X77.323 Y84.205 E14.67099
G1 X78.001 Y83.938 E14.70735
G1 X79.14 Y83.507 E14.76811
G1 X79.688 Y83.308 E14.79719
G1 X81.007 Y82.845 E14.86693
G1 X81.585 Y82.65 E14.89737
G1 X82.786 Y82.265 E14.96029
G1 X83.37 Y82.086 E14.99076
G1 X84.683 Y81.701 E15.05903
G1 X85.284 Y81.533 E15.09016
G1 X86.501 Y81.212 E15.15295
G1 X87.122 Y81.055 E15.18491
G1 X88.409 Y80.749 E15.25091
G1 X89.01 Y80.615 E15.28163
G1 X90.273 Y80.348 E15.34603
G1 X90.9 Y80.226 E15.3779
G1 X92.165 Y79.994 E15.44206
G1 X92.774 Y79.89 E15.47289
G1 X94.111 Y79.68 E15.54041
G1 X94.679 Y79.599 E15.56903
G1 X95.989 Y79.427 E15.63495
G1 X96.653 Y79.349 E15.6683
G1 X97.881 Y79.221 E15.7299
G1 X98.521 Y79.163 E15.76196
G1 X99.84 Y79.06 E15.82797
G1 X100.479 Y79.018 E15.85992
G1 X101.733 Y78.954 E15.92256
G1 X102.399 Y78.927 E15.95581
G1 X103.677 Y78.893 E16.0196
G1 X104.353 Y78.884 E16.05332
G1 X105.67 Y78.883 E16.11903
G1 X106.271 Y78.891 E16.14902
G1 X107.581 Y78.924 E16.21439
G1 X108.192 Y78.948 E16.2449
G1 X109.501 Y79.016 E16.31029
G1 X110.095 Y79.053 E16.33999
G1 X111.442 Y79.158 E16.40739
G1 X112.041 Y79.212 E16.4374
G1 X113.344 Y79.347 E16.50275
G1 X113.969 Y79.42 E16.53415
G1 X115.266 Y79.589 E16.5994
G1 X115.868 Y79.675 E16.62974
G1 X117.176 Y79.881 E16.6958
G1 X117.729 Y79.974 E16.72378
G1 X119.104 Y80.226 E16.79352
G1 X119.67 Y80.336 E16.82228
G1 X120.931 Y80.601 E16.88657
G1 X121.604 Y80.751 E16.92097
G1 X122.793 Y81.032 E16.98192
G1 X123.414 Y81.188 E17.01387
G1 X124.719 Y81.533 E17.08121
G1 X125.284 Y81.69 E17.11047
G1 X126.563 Y82.063 E17.17694
G1 X127.172 Y82.25 E17.20872
G1 X128.37 Y82.634 E17.27148
G1 X128.955 Y82.83 E17.30226
G1 X130.24 Y83.279 E17.37017
G1 X130.804 Y83.484 E17.40011
G1 X132.037 Y83.952 E17.46591
G1 X132.597 Y84.173 E17.49594
G1 X133.794 Y84.661 E17.56043
G1 X134.357 Y84.899 E17.59093
G1 X135.618 Y85.453 E17.65965
G1 X136.136 Y85.69 E17.68806
G1 X137.292 Y86.231 E17.75174
G1 X137.88 Y86.517 E17.78436
G1 X139.029 Y87.093 E17.84849
G1 X139.635 Y87.408 E17.88256
G1 X140.741 Y88 E17.94515
G1 X141.277 Y88.295 E17.97567
G1 X142.449 Y88.961 E18.04292
G1 X142.986 Y89.276 E18.07398
G1 X144.094 Y89.945 E18.13856
G1 X144.598 Y90.258 E18.16815
G1 X145.754 Y90.997 E18.23661
G1 X146.192 Y91.285 E18.26276
G1 X147.37 Y92.082 E18.33372
G1 X147.83 Y92.403 E18.3617
G1 X148.915 Y93.177 E18.42819
G1 X149.359 Y93.503 E18.45567
G1 X150.506 Y94.368 E18.52735
G1 X150.925 Y94.693 E18.5538
G1 X151.915 Y95.481 E18.61693
G1 X152.45 Y95.917 E18.65136
G1 X153.43 Y96.74 E18.71521
G1 X153.912 Y97.155 E18.74694
G1 X154.886 Y98.015 E18.81176
G1 X155.355 Y98.442 E18.84341
G1 X156.296 Y99.317 E18.90751
G1 X156.713 Y99.715 E18.93627
G1 X157.73 Y100.713 E19.00736
G1 X158.162 Y101.149 E19.03798
G1 X159.026 Y102.04 E19.0999
G1 X159.473 Y102.513 E19.13237
G1 X160.335 Y103.451 E19.19593
G1 X160.793 Y103.961 E19.23013
G1 X161.591 Y104.877 E19.29073
G1 X161.984 Y105.338 E19.32096
G1 X162.861 Y106.396 E19.38952
G1 X163.274 Y106.907 E19.4223
G1 X164.042 Y107.885 E19.48434
G1 X164.426 Y108.387 E19.51587
G1 X165.233 Y109.47 E19.58325
G1 X165.526 Y109.874 E19.60815
G1 X165.958 Y110.488 E19.6456
G1 X166.102 Y110.762 E19.66105
G1 X166.171 Y111.063 E19.67645
G1 X166.161 Y111.372 E19.69188
G1 X166.073 Y111.669 E19.70733
G1 X165.911 Y111.932 E19.72274
G1 X165.59 Y112.21 E19.74393
G1 X165.299 Y112.383 E19.76082
G1 X165.183 Y112.444 E19.76736
G1 X164.706 Y112.661 E19.7935
G1 X164.594 Y112.705 E19.7995
G1 X164.029 Y112.892 E19.82919
G1 X163.559 Y113.002 E19.85328
G1 X163.163 Y113.066 E19.87329
G1 X162.831 Y113.097 E19.88993
G1 X162.426 Y113.112 E19.91014
G1 X162.07 Y113.106 E19.92791
G1 X161.925 Y113.095 E19.93516
G1 X161.176 Y112.991 E19.97289
G1 X161.026 Y112.96 E19.98053
G1 X160.441 Y112.797 E20.01083
G1 X160.115 Y112.678 E20.02814
G1 X159.734 Y112.514 E20.04884
G1 X159.469 Y112.376 E20.06374
G1 X159.048 Y112.128 E20.08812
G1 X157.834 Y111.36 E20.15979
G1 X155.446 Y109.895 E20.29956
G1 X153.044 Y108.514 E20.43779
G1 X150.554 Y107.173 E20.57889
G1 X148.087 Y105.934 E20.71662
G1 X145.54 Y104.745 E20.85685
G1 X142.978 Y103.635 E20.99615
G1 X140.364 Y102.588 E21.13664
G1 X137.762 Y101.633 E21.27492
G1 X135.1 Y100.74 E21.415
G1 X132.419 Y99.923 E21.55483
G1 X129.757 Y99.194 E21.69252
G1 X127.01 Y98.524 E21.83359
G1 X124.277 Y97.938 E21.97304
G1 X121.563 Y97.438 E22.11072
G1 X118.796 Y97.008 E22.25042
G1 X115.995 Y96.654 E22.39128
G1 X113.235 Y96.383 E22.52964
G1 X110.449 Y96.19 E22.66896
G1 X107.652 Y96.074 E22.80863
G1 X104.859 Y96.038 E22.94798
G1 X102.063 Y96.082 E23.08749
G1 X99.272 Y96.203 E23.22687
G1 X96.48 Y96.405 E23.36652
G1 X93.701 Y96.685 E23.50587
G1 X90.929 Y97.043 E23.64531
G1 X88.162 Y97.481 E23.78508
G1 X85.442 Y97.991 E23.92315
G1 X82.683 Y98.589 E24.06399
G1 X80.022 Y99.245 E24.20072
G1 X77.277 Y100.004 E24.34281
G1 X74.628 Y100.819 E24.48108
G1 X71.954 Y101.724 E24.62192
G1 X69.366 Y102.683 E24.75962
G1 X66.759 Y103.734 E24.89985
G1 X64.208 Y104.847 E25.03871
G1 X61.672 Y106.039 E25.17851
G1 X59.161 Y107.309 E25.31889
G1 X56.732 Y108.624 E25.4567
G1 X54.296 Y110.034 E25.59712
G1 X51.212 Y111.954 E25.77836
G1 X50.816 Y112.211 E25.80191
G1 X50.72 Y112.267 E25.80746
G1 X50.176 Y112.552 E25.8381
G1 X50.049 Y112.609 E25.84504
G1 X49.567 Y112.79 E25.87073
G1 X49.142 Y112.914 E25.89282
G1 X49.035 Y112.94 E25.89831
G1 X48.525 Y113.039 E25.92423
G1 X48.41 Y113.056 E25.93003
G1 X47.928 Y113.102 E25.95419
G1 X47.814 Y113.107 E25.95988
G1 X47.268 Y113.104 E25.98712
G1 X46.958 Y113.081 E26.00263
G1 X46.549 Y113.023 E26.02324
G1 X46.162 Y112.943 E26.04295
G1 X45.707 Y112.813 E26.06656
G1 X45.591 Y112.773 E26.07268
G1 X45.064 Y112.562 E26.101
G1 X44.959 Y112.514 E26.10676
G1 X44.468 Y112.26 E26.13434
G1 X44.214 Y112.084 E26.14976
G1 X44.013 Y111.848 E26.16523
G1 X43.879 Y111.569 E26.18067
G1 X43.821 Y111.266 E26.19606
G1 X43.843 Y110.957 E26.21151
G1 X43.942 Y110.665 E26.2269
G1 X44.035 Y110.507 E26.23604
G1 X44.418 Y109.958 E26.26944
G1 X44.727 Y109.529 E26.29582
G1 X45.564 Y108.399 E26.36597
G1 X45.932 Y107.917 E26.39623
G1 X46.702 Y106.936 E26.45845
G1 X47.127 Y106.409 E26.49222
G1 X47.934 Y105.435 E26.55533
G1 X48.386 Y104.903 E26.59016
G1 X49.159 Y104.017 E26.64882
G1 X49.656 Y103.463 E26.68595
G1 X50.479 Y102.566 E26.74668
G1 X50.976 Y102.038 E26.78286
G1 X51.872 Y101.113 E26.84711
G1 X52.239 Y100.744 E26.87307
G1 X53.249 Y99.752 E26.9437
G1 X53.652 Y99.367 E26.97151
G1 X54.644 Y98.442 E27.03918
G1 X55.051 Y98.073 E27.06658
G1 X56.082 Y97.161 E27.13526
G1 X56.551 Y96.757 E27.16614
G1 X57.499 Y95.96 E27.22793
G1 X58.037 Y95.521 E27.26257
G1 X59.007 Y94.747 E27.32448
G1 X59.556 Y94.32 E27.35918
G1 X60.556 Y93.565 E27.4217
G1 X61.094 Y93.17 E27.45499
G1 X62.118 Y92.438 E27.51779
G1 X62.618 Y92.091 E27.54816
G1 F1500 E23.54816
;MESH:FaceShield_bottom_V6.stl
G0 F6000 X60.387 Y94.354
G0 X61.029 Y95.228
G0 X53.105 Y103.237
G0 X51.035 Y105.488
G0 X46.539 Y110.779
;TYPE:WALL-INNER
G1 F1500 E27.54816
G1 F1080 X46.625 Y110.659 E27.55552
G1 X46.648 Y110.626 E27.55753
G1 X46.911 Y110.261 E27.57997
G1 X48.046 Y108.775 E27.67326
G1 X49.213 Y107.328 E27.766
G1 X50.419 Y105.907 E27.85899
G1 X51.68 Y104.499 E27.95329
G1 X52.984 Y103.116 E28.04812
G1 X54.296 Y101.795 E28.14101
G1 X55.636 Y100.513 E28.23353
G1 X57.015 Y99.259 E28.32652
G1 X58.449 Y98.026 E28.42087
G1 X59.886 Y96.849 E28.51354
G1 X61.368 Y95.699 E28.60713
G1 X62.887 Y94.582 E28.7012
G1 X64.41 Y93.523 E28.79374
G1 X65.975 Y92.493 E28.88721
G1 X67.58 Y91.495 E28.9815
G1 X69.182 Y90.555 E29.07417
G1 X70.822 Y89.65 E29.16762
G1 X72.477 Y88.791 E29.26065
G1 X74.18 Y87.963 E29.35512
G1 X75.895 Y87.183 E29.44912
G1 X77.604 Y86.457 E29.54175
G1 X79.319 Y85.784 E29.63367
